( Made using CamBam - http://www.cambam.co.uk )
( BRUT   : X=58.0, Y=94.0, Z=10.0 )
( BoxBottom 1/12/2023 6:30:28 PM )
( Post processor: Default )
( T2 : 2.0 )
G21 G90 G64 G40
G0 Z3.0
( T2 : 2.0 )
T2 M6
( PCB )
G17
M158 ; Start cooling pump
M3 S7500
G0 X5.2094 Y3.6283
G0 Z0.95
G1 F250.0 Z-1.55
G3 F800.0 X8.5 Y6.0 I0.7906 J2.3717
G3 X4.75 Y8.1651 I-2.5 J0.0
G3 Y3.8349 I1.25 J-2.1651
G3 X5.2094 Y3.6283 I1.25 J2.1651
G0 Z3.0
G0 X27.0 Y27.0
G0 Z0.95
G1 F250.0 Z-1.55
G1 F800.0 Y63.0
G1 Y27.0
G1 F250.0 X27.8
G1 F800.0 Y26.2
G1 X26.2
G1 Y63.8
G1 X27.8
G1 Y27.0
G1 F250.0 X28.6
G1 F800.0 Y25.4
G1 X25.4
G1 Y64.6
G1 X28.6
G1 Y27.0
G1 F250.0 X29.4
G1 F800.0 Y24.6
G1 X24.6
G1 Y65.4
G1 X29.4
G1 Y27.0
G1 F250.0 X30.2
G1 F800.0 Y23.8
G1 X23.8
G1 Y66.2
G1 X30.2
G1 Y27.0
G1 F250.0 X31.0
G1 F800.0 Y23.0
G1 X23.0
G1 Y67.0
G1 X31.0
G1 Y27.0
G1 F250.0 X31.8
G1 F800.0 Y22.2
G1 X22.2
G1 Y67.8
G1 X31.8
G1 Y27.0
G1 F250.0 X32.6
G1 F800.0 Y21.4
G1 X21.4
G1 Y68.6
G1 X32.6
G1 Y27.0
G1 F250.0 X33.4
G1 F800.0 Y20.6
G1 X20.6
G1 Y69.4
G1 X33.4
G1 Y27.0
G1 F250.0 X34.2
G1 F800.0 Y19.8
G1 X19.8
G1 Y70.2
G1 X34.2
G1 Y27.0
G1 F250.0 X35.0
G1 F800.0 Y19.1602
G3 X34.8398 Y19.0 I13.0 J-13.1602
G1 X19.1602
G3 X19.0 Y19.1602 I-13.1602 J-13.0
G1 Y70.8398
G3 X19.1602 Y71.0 I-13.0 J13.1602
G1 X34.8398
G3 X35.0 Y70.8398 I13.1602 J13.0
G1 Y27.0
G1 F250.0 X35.8
G1 F800.0 Y18.8216
G3 X35.1784 Y18.2 I12.2 J-12.8216
G1 X18.8216
G3 X18.2 Y18.8216 I-12.8216 J-12.2
G1 Y71.1784
G3 X18.8216 Y71.8 I-12.2 J12.8216
G1 X35.1784
G3 X35.8 Y71.1784 I12.8216 J12.2
G1 Y27.0
G1 F250.0 X36.6
G1 F800.0 Y18.4738
G3 X35.5262 Y17.4 I11.4 J-12.4738
G1 X18.4738
G3 X17.4 Y18.4738 I-12.4738 J-11.4
G1 Y71.5262
G3 X18.4738 Y72.6 I-11.4 J12.4738
G1 X35.5262
G3 X36.6 Y71.5262 I12.4738 J11.4
G1 Y27.0
G1 F250.0 X37.4
G1 F800.0 Y18.116
G3 X35.884 Y16.6 I10.6 J-12.116
G1 X18.116
G3 X16.6 Y18.116 I-12.116 J-10.6
G1 Y71.884
G3 X18.116 Y73.4 I-10.6 J12.116
G1 X35.884
G3 X37.4 Y71.884 I12.116 J10.6
G1 Y27.0
G1 F250.0 X38.2
G1 F800.0 Y17.7474
G3 X36.2526 Y15.8 I9.8 J-11.7474
G1 X17.7474
G3 X15.8 Y17.7474 I-11.7474 J-9.8
G1 Y72.2526
G3 X17.7474 Y74.2 I-9.8 J11.7474
G1 X36.2526
G3 X38.2 Y72.2526 I11.7474 J9.8
G1 Y27.0
G1 F250.0 X39.0
G1 F800.0 Y17.3668
G3 X36.6332 Y15.0 I9.0 J-11.3668
G1 X17.3668
G3 X15.0 Y17.3668 I-11.3668 J-9.0
G1 Y72.6332
G3 X17.3668 Y75.0 I-9.0 J11.3668
G1 X36.6332
G3 X39.0 Y72.6332 I11.3668 J9.0
G1 Y27.0
G1 F250.0 X39.8
G1 F800.0 Y16.973
G3 X37.027 Y14.2 I8.2 J-10.973
G1 X16.973
G3 X14.2 Y16.973 I-10.973 J-8.2
G1 Y73.027
G3 X16.973 Y75.8 I-8.2 J10.973
G1 X37.027
G3 X39.8 Y73.027 I10.973 J8.2
G1 Y27.0
G1 F250.0 X40.6
G1 F800.0 Y16.5645
G3 X37.4355 Y13.4 I7.4 J-10.5645
G1 X16.5645
G3 X13.4 Y16.5645 I-10.5645 J-7.4
G1 Y73.4355
G3 X16.5645 Y76.6 I-7.4 J10.5645
G1 X37.4355
G3 X40.6 Y73.4355 I10.5645 J7.4
G1 Y27.0
G1 F250.0 X41.4
G1 F800.0 Y16.1396
G3 X37.8604 Y12.6 I6.6 J-10.1396
G1 X16.1396
G3 X12.6 Y16.1396 I-10.1396 J-6.6
G1 Y73.8604
G3 X16.1396 Y77.4 I-6.6 J10.1396
G1 X37.8604
G3 X41.4 Y73.8604 I10.1396 J6.6
G1 Y27.0
G1 F250.0 X42.2
G1 F800.0 Y15.6961
G3 X38.3039 Y11.8 I5.8 J-9.6961
G1 X15.6961
G3 X11.8 Y15.6961 I-9.6961 J-5.8
G1 Y74.3039
G3 X15.6961 Y78.2 I-5.8 J9.6961
G1 X38.3039
G3 X42.2 Y74.3039 I9.6961 J5.8
G1 Y27.0
G1 F250.0 X43.0
G1 F800.0 Y15.2313
G3 X42.7508 Y15.0919 I5.0 J-9.2313
G3 X38.7687 Y11.0 I5.2492 J-9.0919
G1 X15.2313
G3 X11.0 Y15.2313 I-9.2313 J-5.0
G1 Y74.7687
G3 X15.2313 Y79.0 I-5.0 J9.2313
G1 X38.7687
G3 X42.7508 Y74.9081 I9.2313 J5.0
G3 X43.0 Y74.7687 I5.2492 J9.0919
G1 Y27.0
G1 F250.0 X43.8
G1 F800.0 Y14.7418
G3 X43.1508 Y14.3991 I4.2 J-8.7418
G3 X39.2582 Y10.2 I4.8492 J-8.3991
G1 X14.7418
G3 X10.2 Y14.7418 I-8.7418 J-4.2
G1 Y75.2582
G3 X14.7418 Y79.8 I-4.2 J8.7418
G1 X39.2582
G3 X43.1508 Y75.6009 I8.7418 J4.2
G3 X43.8 Y75.2582 I4.8492 J8.3991
G1 Y27.0
G1 F250.0 X44.6
G1 F800.0 Y14.2232
G3 X43.5508 Y13.7062 I3.4 J-8.2232
G3 X39.7768 Y9.4 I4.4492 J-7.7062
G1 X14.2232
G3 X9.4 Y14.2232 I-8.2232 J-3.4
G1 Y75.7768
G3 X14.2232 Y80.6 I-3.4 J8.2232
G1 X39.7768
G3 X43.5508 Y76.2938 I8.2232 J3.4
G3 X44.6 Y75.7768 I4.4492 J7.7062
G1 Y27.0
G1 F250.0 X45.4
G1 F800.0 Y13.6697
G3 X43.9508 Y13.0134 I2.6 J-7.6697
G3 X40.3303 Y8.6 I4.0492 J-7.0134
G1 X13.6697
G3 X8.6 Y13.6697 I-7.6697 J-2.6
G1 Y76.3303
G3 X13.6697 Y81.4 I-2.6 J7.6697
G1 X40.3303
G3 X43.9508 Y76.9866 I7.6697 J2.6
G3 X45.4 Y76.3303 I4.0492 J7.0134
G1 Y27.0
G1 F250.0 X46.2
G1 F800.0 Y13.073
G3 X44.3508 Y12.3206 I1.8 J-7.073
G3 X40.927 Y7.8 I3.6492 J-6.3206
G1 X13.073
G3 X7.8 Y13.073 I-7.073 J-1.8
G1 Y76.927
G3 X13.073 Y82.2 I-1.8 J7.073
G1 X40.927
G3 X44.3508 Y77.6794 I7.073 J1.8
G3 X46.2 Y76.927 I3.6492 J6.3206
G1 Y27.0
G1 F250.0 X47.0
G1 F800.0 Y12.421
G3 X44.7508 Y11.6278 I1.0 J-6.421
G3 X41.579 Y7.0 I3.2492 J-5.6278
G1 X12.421
G3 X7.0 Y12.421 I-6.421 J-1.0
G1 Y77.579
G3 X12.421 Y83.0 I-1.0 J6.421
G1 X41.579
G3 X44.7508 Y78.3722 I6.421 J1.0
G3 X47.0 Y77.579 I3.2492 J5.6278
G1 Y27.0
G1 F250.0 X47.8
G1 F800.0 Y11.6949
G3 X45.1508 Y10.935 I0.2 J-5.6949
G3 X42.3051 Y6.2 I2.8492 J-4.935
G1 X11.6949
G3 X6.2 Y11.6949 I-5.6949 J-0.2
G1 Y78.3051
G3 X11.6949 Y83.8 I-0.2 J5.6949
G1 X42.3051
G3 X45.1508 Y79.065 I5.6949 J0.2
G3 X47.8 Y78.3051 I2.8492 J4.935
G1 Y27.0
G1 F250.0 X48.6
G1 F800.0 Y10.8615
G3 X45.5508 Y10.2421 I-0.6 J-4.8615
G3 X43.1385 Y5.4 I2.4492 J-4.2421
G1 X10.8615
G3 X10.8984 Y6.0 I-4.8615 J0.6
G3 X5.4 Y10.8615 I-4.8984 J0.0
G1 Y79.1385
G3 X10.8984 Y84.0 I0.6 J4.8615
G3 X10.8615 Y84.6 I-4.8984 J0.0
G1 X43.1385
G3 X45.5508 Y79.7579 I4.8615 J-0.6
G3 X48.6 Y79.1385 I2.4492 J4.2421
G1 Y27.0
G1 F250.0 X49.4
G1 F800.0 Y9.8519
G3 X45.9508 Y9.5493 I-1.4 J-3.8519
G3 X44.1481 Y4.6 I2.0492 J-3.5493
G1 X9.8519
G3 X10.0984 Y6.0 I-3.8519 J1.4
G3 X4.6 Y9.8519 I-4.0984 J0.0
G1 Y80.1481
G3 X10.0984 Y84.0 I1.4 J3.8519
G3 X9.8519 Y85.4 I-4.0984 J0.0
G1 X44.1481
G3 X45.9508 Y80.4507 I3.8519 J-1.4
G3 X49.4 Y80.1481 I2.0492 J3.5493
G1 Y27.0
G1 F250.0 X50.2
G1 F800.0 Y8.4575
G3 X46.3508 Y8.8565 I-2.2 J-2.4575
G3 X45.5425 Y3.8 I1.6492 J-2.8565
G1 X8.4575
G3 X9.2984 Y6.0 I-2.4575 J2.2
G3 X4.3508 Y8.8565 I-3.2984 J0.0
G3 X3.8 Y8.4575 I1.6492 J-2.8565
G1 Y81.5425
G3 X4.3508 Y81.1435 I2.2 J2.4575
G3 X9.2984 Y84.0 I1.6492 J2.8565
G3 X8.4575 Y86.2 I-3.2984 J0.0
G1 X45.5425
G3 X46.3508 Y81.1435 I2.4575 J-2.2
G3 X50.2 Y81.5425 I1.6492 J2.8565
G1 Y27.0
G1 F250.0 X51.0
G1 F800.0 Y5.0
G2 X49.0 Y3.0 I-2.0 J0.0
G1 X5.0
G2 X3.0 Y5.0 I0.0 J2.0
G1 Y85.0
G2 X5.0 Y87.0 I2.0 J0.0
G1 X49.0
G2 X51.0 Y85.0 I0.0 J-2.0
G1 Y27.0
G0 Z3.0
G0 X48.3536 Y8.4749
G0 Z0.95
G1 F250.0 Z-1.55
G3 F800.0 X46.75 Y8.1651 I-0.3536 J-2.4749
G3 Y3.8349 I1.25 J-2.1651
G3 X50.5 Y6.0 I1.25 J2.1651
G3 X48.3536 Y8.4749 I-2.5 J0.0
G0 Z3.0
G0 X48.0117 Y81.5
G0 Z0.95
G1 F250.0 Z-1.55
G3 F800.0 X50.5 Y84.0 I-0.0117 J2.5
G3 X46.75 Y86.1651 I-2.5 J0.0
G3 Y81.8349 I1.25 J-2.1651
G3 X48.0117 Y81.5 I1.25 J2.1651
G0 Z3.0
G0 X8.4956 Y83.8515
G0 Z0.95
G1 F250.0 Z-1.55
G3 F800.0 X8.5 Y84.0 I-2.4956 J0.1485
G3 X4.75 Y86.1651 I-2.5 J0.0
G3 Y81.8349 I1.25 J-2.1651
G3 X8.4956 Y83.8515 I1.25 J2.1651
( PCBparts )
S7500
G0 Z3.0
G0 X19.4161 Y14.2
G0 Z1.0
G1 F250.0 Z-1.5
G1 F800.0 X19.3866
G3 X19.3754 Y14.2182 I-13.3866 J-8.2
G3 X19.4161 Y14.2 I6.6246 J14.7818
G0 Z3.0
G0 X34.5839
G0 Z1.0
G1 F250.0 Z-1.5
G3 F800.0 X34.6246 Y14.2182 I-6.5839 J14.8
G3 X34.6134 Y14.2 I13.3754 J-8.2182
G1 X34.5839
G1 F250.0 X34.2588 Y14.9309
G3 F800.0 X40.6 Y20.1484 I-6.2588 J14.0691
G1 Y18.9307
G3 X40.5508 Y18.9024 I7.4 J-12.9307
G3 X35.0693 Y13.4 I7.4492 J-12.9024
G1 X18.9307
G3 X13.4 Y18.9307 I-12.9307 J-7.4
G1 Y20.1484
G3 X26.0 Y13.6016 I12.6 J8.8516
G1 X28.0
G3 X34.2588 Y14.9309 I0.0 J15.3984
G1 F250.0 X33.9336 Y15.6619
G3 F800.0 X41.4 Y23.2075 I-5.9336 J13.3381
G1 Y18.4581
G3 X40.9508 Y18.2096 I6.6 J-12.4581
G3 X35.5419 Y12.6 I7.0492 J-12.2096
G1 X18.4581
G3 X12.6 Y18.4581 I-12.4581 J-6.6
G1 Y23.2075
G3 X26.0 Y14.4016 I13.4 J5.7925
G1 X28.0
G3 X33.9336 Y15.6619 I0.0 J14.5984
G0 Z3.0
G0 X32.6075 Y71.0765
G0 Z1.0
G1 F250.0 Z-1.5
G3 F800.0 X30.852 Y71.4 I-4.6075 J-20.0765
G1 X32.3416
G3 X32.6075 Y71.0765 I15.6584 J12.6
G0 Z3.0
G0 X23.148 Y71.4
G0 Z1.0
G1 F250.0 Z-1.5
G3 F800.0 X21.3925 Y71.0765 I2.852 J-20.4
G3 X21.6584 Y71.4 I-15.3925 J12.9235
G1 X23.148
G1 F250.0 X23.2034 Y71.0039
G3 F800.0 X20.2001 Y70.3478 I2.7966 J-20.0039
G3 X21.4657 Y71.8 I-14.2001 J13.6522
G1 X32.5343
G3 X33.7999 Y70.3478 I15.4657 J12.2
G3 X28.0 Y71.1984 I-5.7999 J-19.3478
G1 X26.0
G3 X23.2034 Y71.0039 I0.0 J-20.1984
G1 F250.0 X23.3141 Y70.2116
G3 F800.0 X17.4 Y68.3879 I2.6859 J-19.2116
G1 Y68.9272
G3 X21.0728 Y72.6 I-11.4 J15.0728
G1 X32.9272
G3 X36.6 Y68.9272 I15.0728 J11.4
G1 Y68.3879
G3 X28.0 Y70.3984 I-8.6 J-17.3879
G1 X26.0
G3 X23.3141 Y70.2116 I0.0 J-19.3984
G1 F250.0 X23.4249 Y69.4193
G3 F800.0 X16.6 Y67.0481 I2.5751 J-18.4193
G1 Y69.3306
G3 X20.6694 Y73.4 I-10.6 J14.6694
G1 X33.3306
G3 X37.4 Y69.3306 I14.6694 J10.6
G1 Y67.0481
G3 X28.0 Y69.5984 I-9.4 J-16.0481
G1 X26.0
G3 X23.4249 Y69.4193 I0.0 J-18.5984
G1 F250.0 X23.5357 Y68.627
G3 F800.0 X15.8 Y65.5857 I2.4643 J-17.627
G1 Y69.7454
G3 X20.2546 Y74.2 I-9.8 J14.2546
G1 X33.7454
G3 X38.2 Y69.7454 I14.2546 J9.8
G1 Y65.5857
G3 X28.0 Y68.7984 I-10.2 J-14.5857
G1 X26.0
G3 X23.5357 Y68.627 I0.0 J-17.7984
G1 F250.0 X23.6464 Y67.8347
G3 F800.0 X15.0 Y63.9594 I2.3536 J-16.8347
G1 Y70.1726
G3 X19.8274 Y75.0 I-9.0 J13.8274
G1 X34.1726
G3 X39.0 Y70.1726 I13.8274 J9.0
G1 Y63.9594
G3 X28.0 Y67.9984 I-11.0 J-12.9594
G1 X26.0
G3 X23.6464 Y67.8347 I0.0 J-16.9984
G1 F250.0 X23.7572 Y67.0424
G3 F800.0 X14.2 Y62.0972 I2.2428 J-16.0424
G1 Y70.6134
G3 X19.3866 Y75.8 I-8.2 J13.3866
G1 X34.6134
G3 X39.8 Y70.6134 I13.3866 J8.2
G1 Y62.0972
G3 X28.0 Y67.1984 I-11.8 J-11.0972
G1 X26.0
G3 X23.7572 Y67.0424 I0.0 J-16.1984
G1 F250.0 X23.868 Y66.2501
G3 F800.0 X13.4 Y59.8516 I2.132 J-15.2501
G1 Y71.0693
G3 X18.9307 Y76.6 I-7.4 J12.9307
G1 X35.0693
G3 X40.5508 Y71.0976 I12.9307 J7.4
G3 X40.6 Y71.0693 I7.4492 J12.9024
G1 Y59.8516
G3 X28.0 Y66.3984 I-12.6 J-8.8516
G1 X26.0
G3 X23.868 Y66.2501 I0.0 J-15.3984
G1 F250.0 X23.9787 Y65.4578
G3 F800.0 X12.6 Y56.7925 I2.0213 J-14.4578
G1 Y71.5419
G3 X18.4581 Y77.4 I-6.6 J12.4581
G1 X35.5419
G3 X40.9508 Y71.7904 I12.4581 J6.6
G3 X41.4 Y71.5419 I7.0492 J12.2096
G1 Y56.7925
G3 X28.0 Y65.5984 I-13.4 J-5.7925
G1 X26.0
G3 X23.9787 Y65.4578 I0.0 J-14.5984
G0 Z3.0
G0 X25.1972 Y56.7426
G0 Z1.0
G1 F250.0 Z-1.5
G3 F800.0 X20.2016 Y51.0 I0.8028 J-5.7426
G1 Y29.0
G3 X26.0 Y23.2016 I5.7984 J0.0
G1 X28.0
G3 X33.7984 Y29.0 I0.0 J5.7984
G1 Y51.0
G3 X28.0 Y56.7984 I-5.7984 J0.0
G1 X26.0
G3 X25.1972 Y56.7426 I0.0 J-5.7984
G1 F250.0 X25.3077 Y55.9518
G3 F800.0 X21.0 Y51.0 I0.6923 J-4.9518
G1 Y29.0
G3 X26.0 Y24.0 I5.0 J0.0
G1 X28.0
G3 X33.0 Y29.0 I0.0 J5.0
G1 Y51.0
G3 X28.0 Y56.0 I-5.0 J0.0
G1 X26.0
G3 X25.3077 Y55.9518 I0.0 J-5.0
G0 Z3.0
G0 X25.0864 Y57.5348
G0 Z1.0
G1 F250.0 Z-1.5
G2 F800.0 X26.0 Y57.5984 I0.9136 J-6.5348
G1 X28.0
G2 X34.5984 Y51.0 I0.0 J-6.5984
G1 Y29.0
G2 X28.0 Y22.4016 I-6.5984 J0.0
G1 X26.0
G2 X19.4016 Y29.0 I0.0 J6.5984
G1 Y51.0
G2 X25.0864 Y57.5348 I6.5984 J0.0
G1 F250.0 X24.9756 Y58.3271
G2 F800.0 X26.0 Y58.3984 I1.0244 J-7.3271
G1 X28.0
G2 X35.3984 Y51.0 I0.0 J-7.3984
G1 Y29.0
G2 X28.0 Y21.6016 I-7.3984 J0.0
G1 X26.0
G2 X18.6016 Y29.0 I0.0 J7.3984
G1 Y51.0
G2 X24.9756 Y58.3271 I7.3984 J0.0
G1 F250.0 X24.8649 Y59.1194
G2 F800.0 X26.0 Y59.1984 I1.1351 J-8.1194
G1 X28.0
G2 X36.1984 Y51.0 I0.0 J-8.1984
G1 Y29.0
G2 X28.0 Y20.8016 I-8.1984 J0.0
G1 X26.0
G2 X17.8016 Y29.0 I0.0 J8.1984
G1 Y51.0
G2 X24.8649 Y59.1194 I8.1984 J0.0
G1 F250.0 X24.7541 Y59.9117
G2 F800.0 X26.0 Y59.9984 I1.2459 J-8.9117
G1 X28.0
G2 X36.9984 Y51.0 I0.0 J-8.9984
G1 Y29.0
G2 X28.0 Y20.0016 I-8.9984 J0.0
G1 X26.0
G2 X17.0016 Y29.0 I0.0 J8.9984
G1 Y51.0
G2 X24.7541 Y59.9117 I8.9984 J0.0
G1 F250.0 X24.6433 Y60.704
G2 F800.0 X26.0 Y60.7984 I1.3567 J-9.704
G1 X28.0
G2 X37.7984 Y51.0 I0.0 J-9.7984
G1 Y29.0
G2 X28.0 Y19.2016 I-9.7984 J0.0
G1 X26.0
G2 X16.2016 Y29.0 I0.0 J9.7984
G1 Y51.0
G2 X24.6433 Y60.704 I9.7984 J0.0
G1 F250.0 X24.5326 Y61.4963
G2 F800.0 X26.0 Y61.5984 I1.4674 J-10.4963
G1 X28.0
G2 X38.5984 Y51.0 I0.0 J-10.5984
G1 Y29.0
G2 X28.0 Y18.4016 I-10.5984 J0.0
G1 X26.0
G2 X15.4016 Y29.0 I0.0 J10.5984
G1 Y51.0
G2 X24.5326 Y61.4963 I10.5984 J0.0
G1 F250.0 X24.4218 Y62.2886
G2 F800.0 X26.0 Y62.3984 I1.5782 J-11.2886
G1 X28.0
G2 X39.3984 Y51.0 I0.0 J-11.3984
G1 Y29.0
G2 X28.0 Y17.6016 I-11.3984 J0.0
G1 X26.0
G2 X14.6016 Y29.0 I0.0 J11.3984
G1 Y51.0
G2 X24.4218 Y62.2886 I11.3984 J0.0
G1 F250.0 X24.311 Y63.0809
G2 F800.0 X26.0 Y63.1984 I1.689 J-12.0809
G1 X28.0
G2 X40.1984 Y51.0 I0.0 J-12.1984
G1 Y29.0
G2 X28.0 Y16.8016 I-12.1984 J0.0
G1 X26.0
G2 X13.8016 Y29.0 I0.0 J12.1984
G1 Y51.0
G2 X24.311 Y63.0809 I12.1984 J0.0
G1 F250.0 X24.2003 Y63.8732
G2 F800.0 X26.0 Y63.9984 I1.7997 J-12.8732
G1 X28.0
G2 X40.9984 Y51.0 I0.0 J-12.9984
G1 Y29.0
G2 X28.0 Y16.0016 I-12.9984 J0.0
G1 X26.0
G2 X13.0016 Y29.0 I0.0 J12.9984
G1 Y51.0
G2 X24.2003 Y63.8732 I12.9984 J0.0
G1 F250.0 X24.0895 Y64.6655
G2 F800.0 X26.0 Y64.7984 I1.9105 J-13.6655
G1 X28.0
G2 X41.7984 Y51.0 I0.0 J-13.7984
G1 Y29.0
G2 X28.0 Y15.2016 I-13.7984 J0.0
G1 X26.0
G2 X12.2016 Y29.0 I0.0 J13.7984
G1 Y51.0
G2 X24.0895 Y64.6655 I13.7984 J0.0
G0 Z3.0
G0 X11.8
G0 Z1.0
G1 F250.0 Z-1.5
G1 F800.0 Y72.0331
G3 X17.9669 Y78.2 I-5.8 J11.9669
G1 X36.0331
G3 X41.3508 Y72.4832 I11.9669 J5.8
G3 X42.2 Y72.0331 I6.6492 J11.5168
G1 Y17.9669
G3 X41.3508 Y17.5168 I5.8 J-11.9669
G3 X36.0331 Y11.8 I6.6492 J-11.5168
G1 X17.9669
G3 X11.8 Y17.9669 I-11.9669 J-5.8
G1 Y64.6655
G1 F250.0 X11.0
G1 F800.0 Y72.5453
G3 X17.4547 Y79.0 I-5.0 J11.4547
G1 X36.5453
G3 X41.7508 Y73.1761 I11.4547 J5.0
G3 X43.0 Y72.5453 I6.2492 J10.8239
G1 Y17.4547
G3 X41.7508 Y16.8239 I5.0 J-11.4547
G3 X36.5453 Y11.0 I6.2492 J-10.8239
G1 X17.4547
G3 X11.0 Y17.4547 I-11.4547 J-5.0
G1 Y64.6655
G1 F250.0 X10.2
G1 F800.0 Y73.0815
G3 X16.9185 Y79.8 I-4.2 J10.9185
G1 X37.0815
G3 X42.1508 Y73.8689 I10.9185 J4.2
G3 X43.8 Y73.0815 I5.8492 J10.1311
G1 Y16.9185
G3 X42.1508 Y16.1311 I4.2 J-10.9185
G3 X37.0815 Y10.2 I5.8492 J-10.1311
G1 X16.9185
G3 X10.2 Y16.9185 I-10.9185 J-4.2
G1 Y64.6655
G1 F250.0 X9.4
G1 F800.0 Y73.6455
G3 X16.3545 Y80.6 I-3.4 J10.3545
G1 X37.6455
G3 X42.5508 Y74.5617 I10.3545 J3.4
G3 X44.6 Y73.6455 I5.4492 J9.4383
G1 Y16.3545
G3 X42.5508 Y15.4383 I3.4 J-10.3545
G3 X37.6455 Y9.4 I5.4492 J-9.4383
G1 X16.3545
G3 X9.4 Y16.3545 I-10.3545 J-3.4
G1 Y64.6655
G1 F250.0 X8.6
G1 F800.0 Y74.242
G3 X15.758 Y81.4 I-2.6 J9.758
G1 X38.242
G3 X42.9508 Y75.2545 I9.758 J2.6
G3 X45.4 Y74.242 I5.0492 J8.7455
G1 Y15.758
G3 X42.9508 Y14.7455 I2.6 J-9.758
G3 X38.242 Y8.6 I5.0492 J-8.7455
G1 X15.758
G3 X8.6 Y15.758 I-9.758 J-2.6
G1 Y64.6655
G1 F250.0 X7.8
G1 F800.0 Y74.8775
G3 X15.1225 Y82.2 I-1.8 J9.1225
G1 X38.8775
G3 X43.3508 Y75.9473 I9.1225 J1.8
G3 X46.2 Y74.8775 I4.6492 J8.0527
G1 Y15.1225
G3 X43.3508 Y14.0527 I1.8 J-9.1225
G3 X38.8775 Y7.8 I4.6492 J-8.0527
G1 X15.1225
G3 X7.8 Y15.1225 I-9.1225 J-1.8
G1 Y64.6655
G1 F250.0 X7.0
G1 F800.0 Y75.5606
G3 X14.4394 Y83.0 I-1.0 J8.4394
G1 X39.5606
G3 X43.7508 Y76.6402 I8.4394 J1.0
G3 X47.0 Y75.5606 I4.2492 J7.3598
G1 Y14.4394
G3 X43.7508 Y13.3598 I1.0 J-8.4394
G3 X39.5606 Y7.0 I4.2492 J-7.3598
G1 X14.4394
G3 X7.0 Y14.4394 I-8.4394 J-1.0
G1 Y64.6655
G1 F250.0 X6.2
G1 F800.0 Y76.3042
G3 X13.6958 Y83.8 I-0.2 J7.6958
G1 X40.3042
G3 X44.1508 Y77.333 I7.6958 J0.2
G3 X47.8 Y76.3042 I3.8492 J6.667
G1 Y13.6958
G3 X44.1508 Y12.667 I0.2 J-7.6958
G3 X40.3042 Y6.2 I3.8492 J-6.667
G1 X13.6958
G3 X6.2 Y13.6958 I-7.6958 J-0.2
G1 Y64.6655
G1 F250.0 X5.4
G1 F800.0 Y77.1277
G3 X12.8984 Y84.0 I0.6 J6.8723
G3 X12.8723 Y84.6 I-6.8984 J0.0
G1 X41.1277
G3 X44.5508 Y78.0258 I6.8723 J-0.6
G3 X48.6 Y77.1277 I3.4492 J5.9742
G1 Y12.8723
G3 X44.5508 Y11.9742 I-0.6 J-6.8723
G3 X41.1277 Y5.4 I3.4492 J-5.9742
G1 X12.8723
G3 X12.8984 Y6.0 I-6.8723 J0.6
G3 X5.4 Y12.8723 I-6.8984 J0.0
G1 Y64.6655
G1 F250.0 X4.6
G1 F800.0 Y78.0645
G3 X12.0984 Y84.0 I1.4 J5.9355
G3 X11.9355 Y85.4 I-6.0984 J0.0
G1 X42.0645
G3 X44.9508 Y78.7186 I5.9355 J-1.4
G3 X49.4 Y78.0645 I3.0492 J5.2814
G1 Y11.9355
G3 X44.9508 Y11.2814 I-1.4 J-5.9355
G3 X42.0645 Y4.6 I3.0492 J-5.2814
G1 X11.9355
G3 X12.0984 Y6.0 I-5.9355 J1.4
G3 X4.6 Y11.9355 I-6.0984 J0.0
G1 Y64.6655
G1 F250.0 X3.8
G1 F800.0 Y79.1799
G3 X11.2984 Y84.0 I2.2 J4.8201
G3 X10.8201 Y86.2 I-5.2984 J0.0
G1 X43.1799
G3 X45.3508 Y79.4115 I4.8201 J-2.2
G3 X50.2 Y79.1799 I2.6492 J4.5885
G1 Y10.8201
G3 X45.3508 Y10.5885 I-2.2 J-4.8201
G3 X43.1799 Y3.8 I2.6492 J-4.5885
G1 X10.8201
G3 X11.2984 Y6.0 I-4.8201 J2.2
G3 X3.8 Y10.8201 I-5.2984 J0.0
G1 Y64.6655
G1 F250.0 X3.0
G1 F800.0 Y80.6459
G3 X3.75 Y80.1029 I3.0 J3.3541
G3 X10.5 Y84.0 I2.25 J3.8971
G3 X9.3541 Y87.0 I-4.5 J0.0
G1 X44.6459
G3 X45.75 Y80.1029 I3.3541 J-3.0
G3 X51.0 Y80.6459 I2.25 J3.8971
G1 Y9.3541
G3 X45.75 Y9.8971 I-3.0 J-3.3541
G3 X44.6459 Y3.0 I2.25 J-3.8971
G1 X9.3541
G3 X10.5 Y6.0 I-3.3541 J3.0
G3 X3.75 Y9.8971 I-4.5 J0.0
G3 X3.0 Y9.3541 I2.25 J-3.8971
G1 Y64.6655
G0 Z3.0
G0 X21.3925 Y71.0765
G0 Z-0.5
G1 F250.0 Z-3.0
G3 F800.0 X21.6584 Y71.4 I-15.3925 J12.9235
G1 X23.148
G3 X21.3925 Y71.0765 I2.852 J-20.4
G0 Z3.0
G0 X30.852 Y71.4
G0 Z-0.5
G1 F250.0 Z-3.0
G1 F800.0 X32.3416
G3 X32.6075 Y71.0765 I15.6584 J12.6
G3 X30.852 Y71.4 I-4.6075 J-20.0765
G1 F250.0 X30.7966 Y71.0039
G3 F800.0 X28.0 Y71.1984 I-2.7966 J-20.0039
G1 X26.0
G3 X20.2001 Y70.3478 I0.0 J-20.1984
G3 X21.4657 Y71.8 I-14.2001 J13.6522
G1 X32.5343
G3 X33.7999 Y70.3478 I15.4657 J12.2
G3 X30.7966 Y71.0039 I-5.7999 J-19.3478
G1 F250.0 X30.6859 Y70.2116
G3 F800.0 X28.0 Y70.3984 I-2.6859 J-19.2116
G1 X26.0
G3 X17.4 Y68.3879 I0.0 J-19.3984
G1 Y68.9272
G3 X21.0728 Y72.6 I-11.4 J15.0728
G1 X32.9272
G3 X36.6 Y68.9272 I15.0728 J11.4
G1 Y68.3879
G3 X30.6859 Y70.2116 I-8.6 J-17.3879
G1 F250.0 X30.5751 Y69.4193
G3 F800.0 X28.0 Y69.5984 I-2.5751 J-18.4193
G1 X26.0
G3 X16.6 Y67.0481 I0.0 J-18.5984
G1 Y69.3306
G3 X20.6694 Y73.4 I-10.6 J14.6694
G1 X33.3306
G3 X37.4 Y69.3306 I14.6694 J10.6
G1 Y67.0481
G3 X30.5751 Y69.4193 I-9.4 J-16.0481
G1 F250.0 X30.4643 Y68.627
G3 F800.0 X28.0 Y68.7984 I-2.4643 J-17.627
G1 X26.0
G3 X15.8 Y65.5857 I0.0 J-17.7984
G1 Y69.7454
G3 X20.2546 Y74.2 I-9.8 J14.2546
G1 X33.7454
G3 X38.2 Y69.7454 I14.2546 J9.8
G1 Y65.5857
G3 X30.4643 Y68.627 I-10.2 J-14.5857
G1 F250.0 X30.3536 Y67.8347
G3 F800.0 X28.0 Y67.9984 I-2.3536 J-16.8347
G1 X26.0
G3 X15.0 Y63.9594 I0.0 J-16.9984
G1 Y70.1726
G3 X19.8274 Y75.0 I-9.0 J13.8274
G1 X34.1726
G3 X39.0 Y70.1726 I13.8274 J9.0
G1 Y63.9594
G3 X30.3536 Y67.8347 I-11.0 J-12.9594
G1 F250.0 X30.2428 Y67.0424
G3 F800.0 X28.0 Y67.1984 I-2.2428 J-16.0424
G1 X26.0
G3 X14.2 Y62.0972 I0.0 J-16.1984
G1 Y70.6134
G3 X19.3866 Y75.8 I-8.2 J13.3866
G1 X34.6134
G3 X39.8 Y70.6134 I13.3866 J8.2
G1 Y62.0972
G3 X30.2428 Y67.0424 I-11.8 J-11.0972
G1 F250.0 X30.132 Y66.2501
G3 F800.0 X28.0 Y66.3984 I-2.132 J-15.2501
G1 X26.0
G3 X13.4 Y59.8516 I0.0 J-15.3984
G1 Y71.0693
G3 X18.9307 Y76.6 I-7.4 J12.9307
G1 X35.0693
G3 X40.5508 Y71.0976 I12.9307 J7.4
G3 X40.6 Y71.0693 I7.4492 J12.9024
G1 Y59.8516
G3 X30.132 Y66.2501 I-12.6 J-8.8516
G1 F250.0 X30.0213 Y65.4578
G3 F800.0 X28.0 Y65.5984 I-2.0213 J-14.4578
G1 X26.0
G3 X12.6 Y56.7925 I0.0 J-14.5984
G1 Y71.5419
G3 X18.4581 Y77.4 I-6.6 J12.4581
G1 X35.5419
G3 X40.9508 Y71.7904 I12.4581 J6.6
G3 X41.4 Y71.5419 I7.0492 J12.2096
G1 Y56.7925
G3 X30.0213 Y65.4578 I-13.4 J-5.7925
G0 Z3.0
G0 X34.6246 Y14.2182
G0 Z-0.5
G1 F250.0 Z-3.0
G3 F800.0 X34.6134 Y14.2 I13.3754 J-8.2182
G1 X34.5839
G3 X34.6246 Y14.2182 I-6.5839 J14.8
G0 Z3.0
G0 X19.4161 Y14.2
G0 Z-0.5
G1 F250.0 Z-3.0
G1 F800.0 X19.3866
G3 X19.3754 Y14.2182 I-13.3866 J-8.2
G3 X19.4161 Y14.2 I6.6246 J14.7818
G1 F250.0 X19.7412 Y14.9309
G3 F800.0 X26.0 Y13.6016 I6.2588 J14.0691
G1 X28.0
G3 X40.6 Y20.1484 I0.0 J15.3984
G1 Y18.9307
G3 X40.5508 Y18.9024 I7.4 J-12.9307
G3 X35.0693 Y13.4 I7.4492 J-12.9024
G1 X18.9307
G3 X13.4 Y18.9307 I-12.9307 J-7.4
G1 Y20.1484
G3 X19.7412 Y14.9309 I12.6 J8.8516
G1 F250.0 X20.0664 Y15.6619
G3 F800.0 X26.0 Y14.4016 I5.9336 J13.3381
G1 X28.0
G3 X41.4 Y23.2075 I0.0 J14.5984
G1 Y18.4581
G3 X40.9508 Y18.2096 I6.6 J-12.4581
G3 X35.5419 Y12.6 I7.0492 J-12.2096
G1 X18.4581
G3 X12.6 Y18.4581 I-12.4581 J-6.6
G1 Y23.2075
G3 X20.0664 Y15.6619 I13.4 J5.7925
G0 Z3.0
G0 X23.6432 Y23.7022
G0 Z-0.5
G1 F250.0 Z-3.0
G3 F800.0 X26.0 Y23.2016 I2.3568 J5.2978
G1 X28.0
G3 X33.7984 Y29.0 I0.0 J5.7984
G1 Y51.0
G3 X28.0 Y56.7984 I-5.7984 J0.0
G1 X26.0
G3 X20.2016 Y51.0 I0.0 J-5.7984
G1 Y29.0
G3 X23.6432 Y23.7022 I5.7984 J0.0
G1 F250.0 X23.9677 Y24.4316
G3 F800.0 X26.0 Y24.0 I2.0323 J4.5684
G1 X28.0
G3 X33.0 Y29.0 I0.0 J5.0
G1 Y51.0
G3 X28.0 Y56.0 I-5.0 J0.0
G1 X26.0
G3 X21.0 Y51.0 I0.0 J-5.0
G1 Y29.0
G3 X23.9677 Y24.4316 I5.0 J0.0
G0 Z3.0
G0 X23.318 Y22.9712
G0 Z-0.5
G1 F250.0 Z-3.0
G2 F800.0 X19.4016 Y29.0 I2.682 J6.0288
G1 Y51.0
G2 X26.0 Y57.5984 I6.5984 J0.0
G1 X28.0
G2 X34.5984 Y51.0 I0.0 J-6.5984
G1 Y29.0
G2 X28.0 Y22.4016 I-6.5984 J0.0
G1 X26.0
G2 X23.318 Y22.9712 I0.0 J6.5984
G1 F250.0 X22.9929 Y22.2403
G2 F800.0 X18.6016 Y29.0 I3.0071 J6.7597
G1 Y51.0
G2 X26.0 Y58.3984 I7.3984 J0.0
G1 X28.0
G2 X35.3984 Y51.0 I0.0 J-7.3984
G1 Y29.0
G2 X28.0 Y21.6016 I-7.3984 J0.0
G1 X26.0
G2 X22.9929 Y22.2403 I0.0 J7.3984
G1 F250.0 X22.6677 Y21.5094
G2 F800.0 X17.8016 Y29.0 I3.3323 J7.4906
G1 Y51.0
G2 X26.0 Y59.1984 I8.1984 J0.0
G1 X28.0
G2 X36.1984 Y51.0 I0.0 J-8.1984
G1 Y29.0
G2 X28.0 Y20.8016 I-8.1984 J0.0
G1 X26.0
G2 X22.6677 Y21.5094 I0.0 J8.1984
G1 F250.0 X22.3425 Y20.7784
G2 F800.0 X17.0016 Y29.0 I3.6575 J8.2216
G1 Y51.0
G2 X26.0 Y59.9984 I8.9984 J0.0
G1 X28.0
G2 X36.9984 Y51.0 I0.0 J-8.9984
G1 Y29.0
G2 X28.0 Y20.0016 I-8.9984 J0.0
G1 X26.0
G2 X22.3425 Y20.7784 I0.0 J8.9984
G1 F250.0 X22.0174 Y20.0475
G2 F800.0 X16.2016 Y29.0 I3.9826 J8.9525
G1 Y51.0
G2 X26.0 Y60.7984 I9.7984 J0.0
G1 X28.0
G2 X37.7984 Y51.0 I0.0 J-9.7984
G1 Y29.0
G2 X28.0 Y19.2016 I-9.7984 J0.0
G1 X26.0
G2 X22.0174 Y20.0475 I0.0 J9.7984
G1 F250.0 X21.6922 Y19.3166
G2 F800.0 X15.4016 Y29.0 I4.3078 J9.6834
G1 Y51.0
G2 X26.0 Y61.5984 I10.5984 J0.0
G1 X28.0
G2 X38.5984 Y51.0 I0.0 J-10.5984
G1 Y29.0
G2 X28.0 Y18.4016 I-10.5984 J0.0
G1 X26.0
G2 X21.6922 Y19.3166 I0.0 J10.5984
G1 F250.0 X21.3671 Y18.5856
G2 F800.0 X14.6016 Y29.0 I4.6329 J10.4144
G1 Y51.0
G2 X26.0 Y62.3984 I11.3984 J0.0
G1 X28.0
G2 X39.3984 Y51.0 I0.0 J-11.3984
G1 Y29.0
G2 X28.0 Y17.6016 I-11.3984 J0.0
G1 X26.0
G2 X21.3671 Y18.5856 I0.0 J11.3984
G1 F250.0 X21.0419 Y17.8547
G2 F800.0 X13.8016 Y29.0 I4.9581 J11.1453
G1 Y51.0
G2 X26.0 Y63.1984 I12.1984 J0.0
G1 X28.0
G2 X40.1984 Y51.0 I0.0 J-12.1984
G1 Y29.0
G2 X28.0 Y16.8016 I-12.1984 J0.0
G1 X26.0
G2 X21.0419 Y17.8547 I0.0 J12.1984
G1 F250.0 X20.7167 Y17.1237
G2 F800.0 X13.0016 Y29.0 I5.2833 J11.8763
G1 Y51.0
G2 X26.0 Y63.9984 I12.9984 J0.0
G1 X28.0
G2 X40.9984 Y51.0 I0.0 J-12.9984
G1 Y29.0
G2 X28.0 Y16.0016 I-12.9984 J0.0
G1 X26.0
G2 X20.7167 Y17.1237 I0.0 J12.9984
G1 F250.0 X20.3916 Y16.3928
G2 F800.0 X12.2016 Y29.0 I5.6084 J12.6072
G1 Y51.0
G2 X26.0 Y64.7984 I13.7984 J0.0
G1 X28.0
G2 X41.7984 Y51.0 I0.0 J-13.7984
G1 Y29.0
G2 X28.0 Y15.2016 I-13.7984 J0.0
G1 X26.0
G2 X20.3916 Y16.3928 I0.0 J13.7984
G0 Z3.0
G0 X16.7811 Y13.7855
G0 Z-0.5
G1 F250.0 Z-3.0
G3 F800.0 X11.8 Y17.9669 I-10.7811 J-7.7855
G1 Y72.0331
G3 X17.9669 Y78.2 I-5.8 J11.9669
G1 X36.0331
G3 X41.3508 Y72.4832 I11.9669 J5.8
G3 X42.2 Y72.0331 I6.6492 J11.5168
G1 Y17.9669
G3 X41.3508 Y17.5168 I5.8 J-11.9669
G3 X36.0331 Y11.8 I6.6492 J-11.5168
G1 X17.9669
G3 X16.7811 Y13.7855 I-11.9669 J-5.8
G1 F250.0 X16.1326 Y13.3172
G3 F800.0 X11.0 Y17.4547 I-10.1326 J-7.3172
G1 Y72.5453
G3 X17.4547 Y79.0 I-5.0 J11.4547
G1 X36.5453
G3 X41.7508 Y73.1761 I11.4547 J5.0
G3 X43.0 Y72.5453 I6.2492 J10.8239
G1 Y17.4547
G3 X41.7508 Y16.8239 I5.0 J-11.4547
G3 X36.5453 Y11.0 I6.2492 J-10.8239
G1 X17.4547
G3 X16.1326 Y13.3172 I-11.4547 J-5.0
G1 F250.0 X15.484 Y12.8488
G3 F800.0 X10.2 Y16.9185 I-9.484 J-6.8488
G1 Y73.0815
G3 X16.9185 Y79.8 I-4.2 J10.9185
G1 X37.0815
G3 X42.1508 Y73.8689 I10.9185 J4.2
G3 X43.8 Y73.0815 I5.8492 J10.1311
G1 Y16.9185
G3 X42.1508 Y16.1311 I4.2 J-10.9185
G3 X37.0815 Y10.2 I5.8492 J-10.1311
G1 X16.9185
G3 X15.484 Y12.8488 I-10.9185 J-4.2
G1 F250.0 X14.8354 Y12.3805
G3 F800.0 X9.4 Y16.3545 I-8.8354 J-6.3805
G1 Y73.6455
G3 X16.3545 Y80.6 I-3.4 J10.3545
G1 X37.6455
G3 X42.5508 Y74.5617 I10.3545 J3.4
G3 X44.6 Y73.6455 I5.4492 J9.4383
G1 Y16.3545
G3 X42.5508 Y15.4383 I3.4 J-10.3545
G3 X37.6455 Y9.4 I5.4492 J-9.4383
G1 X16.3545
G3 X14.8354 Y12.3805 I-10.3545 J-3.4
G1 F250.0 X14.1869 Y11.9121
G3 F800.0 X8.6 Y15.758 I-8.1869 J-5.9121
G1 Y74.242
G3 X15.758 Y81.4 I-2.6 J9.758
G1 X38.242
G3 X42.9508 Y75.2545 I9.758 J2.6
G3 X45.4 Y74.242 I5.0492 J8.7455
G1 Y15.758
G3 X42.9508 Y14.7455 I2.6 J-9.758
G3 X38.242 Y8.6 I5.0492 J-8.7455
G1 X15.758
G3 X14.1869 Y11.9121 I-9.758 J-2.6
G1 F250.0 X13.5383 Y11.4437
G3 F800.0 X7.8 Y15.1225 I-7.5383 J-5.4437
G1 Y74.8775
G3 X15.1225 Y82.2 I-1.8 J9.1225
G1 X38.8775
G3 X43.3508 Y75.9473 I9.1225 J1.8
G3 X46.2 Y74.8775 I4.6492 J8.0527
G1 Y15.1225
G3 X43.3508 Y14.0527 I1.8 J-9.1225
G3 X38.8775 Y7.8 I4.6492 J-8.0527
G1 X15.1225
G3 X13.5383 Y11.4437 I-9.1225 J-1.8
G1 F250.0 X12.8897 Y10.9754
G3 F800.0 X7.0 Y14.4394 I-6.8897 J-4.9754
G1 Y75.5606
G3 X14.4394 Y83.0 I-1.0 J8.4394
G1 X39.5606
G3 X43.7508 Y76.6402 I8.4394 J1.0
G3 X47.0 Y75.5606 I4.2492 J7.3598
G1 Y14.4394
G3 X43.7508 Y13.3598 I1.0 J-8.4394
G3 X39.5606 Y7.0 I4.2492 J-7.3598
G1 X14.4394
G3 X12.8897 Y10.9754 I-8.4394 J-1.0
G1 F250.0 X12.2412 Y10.507
G3 F800.0 X6.2 Y13.6958 I-6.2412 J-4.507
G1 Y76.3042
G3 X13.6958 Y83.8 I-0.2 J7.6958
G1 X40.3042
G3 X44.1508 Y77.333 I7.6958 J0.2
G3 X47.8 Y76.3042 I3.8492 J6.667
G1 Y13.6958
G3 X44.1508 Y12.667 I0.2 J-7.6958
G3 X40.3042 Y6.2 I3.8492 J-6.667
G1 X13.6958
G3 X12.2412 Y10.507 I-7.6958 J-0.2
G1 F250.0 X11.5926 Y10.0387
G3 F800.0 X5.4 Y12.8723 I-5.5926 J-4.0387
G1 Y77.1277
G3 X12.8984 Y84.0 I0.6 J6.8723
G3 X12.8723 Y84.6 I-6.8984 J0.0
G1 X41.1277
G3 X44.5508 Y78.0258 I6.8723 J-0.6
G3 X48.6 Y77.1277 I3.4492 J5.9742
G1 Y12.8723
G3 X44.5508 Y11.9742 I-0.6 J-6.8723
G3 X41.1277 Y5.4 I3.4492 J-5.9742
G1 X12.8723
G3 X12.8984 Y6.0 I-6.8723 J0.6
G3 X11.5926 Y10.0387 I-6.8984 J0.0
G1 F250.0 X10.944 Y9.5703
G3 F800.0 X4.6 Y11.9355 I-4.944 J-3.5703
G1 Y78.0645
G3 X12.0984 Y84.0 I1.4 J5.9355
G3 X11.9355 Y85.4 I-6.0984 J0.0
G1 X42.0645
G3 X44.9508 Y78.7186 I5.9355 J-1.4
G3 X49.4 Y78.0645 I3.0492 J5.2814
G1 Y11.9355
G3 X44.9508 Y11.2814 I-1.4 J-5.9355
G3 X42.0645 Y4.6 I3.0492 J-5.2814
G1 X11.9355
G3 X12.0984 Y6.0 I-5.9355 J1.4
G3 X10.944 Y9.5703 I-6.0984 J0.0
G1 F250.0 X10.2955 Y9.1019
G3 F800.0 X3.8 Y10.8201 I-4.2955 J-3.1019
G1 Y79.1799
G3 X11.2984 Y84.0 I2.2 J4.8201
G3 X10.8201 Y86.2 I-5.2984 J0.0
G1 X43.1799
G3 X45.3508 Y79.4115 I4.8201 J-2.2
G3 X50.2 Y79.1799 I2.6492 J4.5885
G1 Y10.8201
G3 X45.3508 Y10.5885 I-2.2 J-4.8201
G3 X43.1799 Y3.8 I2.6492 J-4.5885
G1 X10.8201
G3 X11.2984 Y6.0 I-4.8201 J2.2
G3 X10.2955 Y9.1019 I-5.2984 J0.0
G1 F250.0 X9.6482 Y8.6345
G3 F800.0 X3.75 Y9.8971 I-3.6482 J-2.6345
G3 X3.0 Y9.3541 I2.25 J-3.8971
G1 Y80.6459
G3 X3.75 Y80.1029 I3.0 J3.3541
G3 X10.5 Y84.0 I2.25 J3.8971
G3 X9.3541 Y87.0 I-4.5 J0.0
G1 X44.6459
G3 X45.75 Y80.1029 I3.3541 J-3.0
G3 X51.0 Y80.6459 I2.25 J3.8971
G1 Y9.3541
G3 X45.75 Y9.8971 I-3.0 J-3.3541
G3 X44.6459 Y3.0 I2.25 J-3.8971
G1 X9.3541
G3 X10.5 Y6.0 I-3.3541 J3.0
G3 X9.6482 Y8.6345 I-4.5 J0.0
G0 Z3.0
G0 X19.3754 Y14.2182
G0 Z-2.0
G1 F250.0 Z-4.5
G3 F800.0 X19.4161 Y14.2 I6.6246 J14.7818
G1 X19.3866
G3 X19.3754 Y14.2182 I-13.3866 J-8.2
G0 Z3.0
G0 X34.5839 Y14.2
G0 Z-2.0
G1 F250.0 Z-4.5
G3 F800.0 X34.6246 Y14.2182 I-6.5839 J14.8
G3 X34.6134 Y14.2 I13.3754 J-8.2182
G1 X34.5839
G1 F250.0 X34.2588 Y14.9309
G3 F800.0 X40.6 Y20.1484 I-6.2588 J14.0691
G1 Y18.9307
G3 X40.5508 Y18.9024 I7.4 J-12.9307
G3 X35.0693 Y13.4 I7.4492 J-12.9024
G1 X18.9307
G3 X13.4 Y18.9307 I-12.9307 J-7.4
G1 Y20.1484
G3 X26.0 Y13.6016 I12.6 J8.8516
G1 X28.0
G3 X34.2588 Y14.9309 I0.0 J15.3984
G1 F250.0 X33.9336 Y15.6619
G3 F800.0 X41.4 Y23.2075 I-5.9336 J13.3381
G1 Y18.4581
G3 X40.9508 Y18.2096 I6.6 J-12.4581
G3 X35.5419 Y12.6 I7.0492 J-12.2096
G1 X18.4581
G3 X12.6 Y18.4581 I-12.4581 J-6.6
G1 Y23.2075
G3 X26.0 Y14.4016 I13.4 J5.7925
G1 X28.0
G3 X33.9336 Y15.6619 I0.0 J14.5984
G0 Z3.0
G0 X32.6075 Y71.0765
G0 Z-2.0
G1 F250.0 Z-4.5
G3 F800.0 X30.852 Y71.4 I-4.6075 J-20.0765
G1 X32.3416
G3 X32.6075 Y71.0765 I15.6584 J12.6
G0 Z3.0
G0 X23.148 Y71.4
G0 Z-2.0
G1 F250.0 Z-4.5
G3 F800.0 X21.3925 Y71.0765 I2.852 J-20.4
G3 X21.6584 Y71.4 I-15.3925 J12.9235
G1 X23.148
G1 F250.0 X23.2034 Y71.0039
G3 F800.0 X20.2001 Y70.3478 I2.7966 J-20.0039
G3 X21.4657 Y71.8 I-14.2001 J13.6522
G1 X32.5343
G3 X33.7999 Y70.3478 I15.4657 J12.2
G3 X28.0 Y71.1984 I-5.7999 J-19.3478
G1 X26.0
G3 X23.2034 Y71.0039 I0.0 J-20.1984
G1 F250.0 X23.3141 Y70.2116
G3 F800.0 X17.4 Y68.3879 I2.6859 J-19.2116
G1 Y68.9272
G3 X21.0728 Y72.6 I-11.4 J15.0728
G1 X32.9272
G3 X36.6 Y68.9272 I15.0728 J11.4
G1 Y68.3879
G3 X28.0 Y70.3984 I-8.6 J-17.3879
G1 X26.0
G3 X23.3141 Y70.2116 I0.0 J-19.3984
G1 F250.0 X23.4249 Y69.4193
G3 F800.0 X16.6 Y67.0481 I2.5751 J-18.4193
G1 Y69.3306
G3 X20.6694 Y73.4 I-10.6 J14.6694
G1 X33.3306
G3 X37.4 Y69.3306 I14.6694 J10.6
G1 Y67.0481
G3 X28.0 Y69.5984 I-9.4 J-16.0481
G1 X26.0
G3 X23.4249 Y69.4193 I0.0 J-18.5984
G1 F250.0 X23.5357 Y68.627
G3 F800.0 X15.8 Y65.5857 I2.4643 J-17.627
G1 Y69.7454
G3 X20.2546 Y74.2 I-9.8 J14.2546
G1 X33.7454
G3 X38.2 Y69.7454 I14.2546 J9.8
G1 Y65.5857
G3 X28.0 Y68.7984 I-10.2 J-14.5857
G1 X26.0
G3 X23.5357 Y68.627 I0.0 J-17.7984
G1 F250.0 X23.6464 Y67.8347
G3 F800.0 X15.0 Y63.9594 I2.3536 J-16.8347
G1 Y70.1726
G3 X19.8274 Y75.0 I-9.0 J13.8274
G1 X34.1726
G3 X39.0 Y70.1726 I13.8274 J9.0
G1 Y63.9594
G3 X28.0 Y67.9984 I-11.0 J-12.9594
G1 X26.0
G3 X23.6464 Y67.8347 I0.0 J-16.9984
G1 F250.0 X23.7572 Y67.0424
G3 F800.0 X14.2 Y62.0972 I2.2428 J-16.0424
G1 Y70.6134
G3 X19.3866 Y75.8 I-8.2 J13.3866
G1 X34.6134
G3 X39.8 Y70.6134 I13.3866 J8.2
G1 Y62.0972
G3 X28.0 Y67.1984 I-11.8 J-11.0972
G1 X26.0
G3 X23.7572 Y67.0424 I0.0 J-16.1984
G1 F250.0 X23.868 Y66.2501
G3 F800.0 X13.4 Y59.8516 I2.132 J-15.2501
G1 Y71.0693
G3 X18.9307 Y76.6 I-7.4 J12.9307
G1 X35.0693
G3 X40.5508 Y71.0976 I12.9307 J7.4
G3 X40.6 Y71.0693 I7.4492 J12.9024
G1 Y59.8516
G3 X28.0 Y66.3984 I-12.6 J-8.8516
G1 X26.0
G3 X23.868 Y66.2501 I0.0 J-15.3984
G1 F250.0 X23.9787 Y65.4578
G3 F800.0 X12.6 Y56.7925 I2.0213 J-14.4578
G1 Y71.5419
G3 X18.4581 Y77.4 I-6.6 J12.4581
G1 X35.5419
G3 X40.9508 Y71.7904 I12.4581 J6.6
G3 X41.4 Y71.5419 I7.0492 J12.2096
G1 Y56.7925
G3 X28.0 Y65.5984 I-13.4 J-5.7925
G1 X26.0
G3 X23.9787 Y65.4578 I0.0 J-14.5984
G0 Z3.0
G0 X25.1972 Y56.7426
G0 Z-2.0
G1 F250.0 Z-4.5
G3 F800.0 X20.2016 Y51.0 I0.8028 J-5.7426
G1 Y29.0
G3 X26.0 Y23.2016 I5.7984 J0.0
G1 X28.0
G3 X33.7984 Y29.0 I0.0 J5.7984
G1 Y51.0
G3 X28.0 Y56.7984 I-5.7984 J0.0
G1 X26.0
G3 X25.1972 Y56.7426 I0.0 J-5.7984
G1 F250.0 X25.3077 Y55.9518
G3 F800.0 X21.0 Y51.0 I0.6923 J-4.9518
G1 Y29.0
G3 X26.0 Y24.0 I5.0 J0.0
G1 X28.0
G3 X33.0 Y29.0 I0.0 J5.0
G1 Y51.0
G3 X28.0 Y56.0 I-5.0 J0.0
G1 X26.0
G3 X25.3077 Y55.9518 I0.0 J-5.0
G0 Z3.0
G0 X25.0864 Y57.5348
G0 Z-2.0
G1 F250.0 Z-4.5
G2 F800.0 X26.0 Y57.5984 I0.9136 J-6.5348
G1 X28.0
G2 X34.5984 Y51.0 I0.0 J-6.5984
G1 Y29.0
G2 X28.0 Y22.4016 I-6.5984 J0.0
G1 X26.0
G2 X19.4016 Y29.0 I0.0 J6.5984
G1 Y51.0
G2 X25.0864 Y57.5348 I6.5984 J0.0
G1 F250.0 X24.9756 Y58.3271
G2 F800.0 X26.0 Y58.3984 I1.0244 J-7.3271
G1 X28.0
G2 X35.3984 Y51.0 I0.0 J-7.3984
G1 Y29.0
G2 X28.0 Y21.6016 I-7.3984 J0.0
G1 X26.0
G2 X18.6016 Y29.0 I0.0 J7.3984
G1 Y51.0
G2 X24.9756 Y58.3271 I7.3984 J0.0
G1 F250.0 X24.8649 Y59.1194
G2 F800.0 X26.0 Y59.1984 I1.1351 J-8.1194
G1 X28.0
G2 X36.1984 Y51.0 I0.0 J-8.1984
G1 Y29.0
G2 X28.0 Y20.8016 I-8.1984 J0.0
G1 X26.0
G2 X17.8016 Y29.0 I0.0 J8.1984
G1 Y51.0
G2 X24.8649 Y59.1194 I8.1984 J0.0
G1 F250.0 X24.7541 Y59.9117
G2 F800.0 X26.0 Y59.9984 I1.2459 J-8.9117
G1 X28.0
G2 X36.9984 Y51.0 I0.0 J-8.9984
G1 Y29.0
G2 X28.0 Y20.0016 I-8.9984 J0.0
G1 X26.0
G2 X17.0016 Y29.0 I0.0 J8.9984
G1 Y51.0
G2 X24.7541 Y59.9117 I8.9984 J0.0
G1 F250.0 X24.6433 Y60.704
G2 F800.0 X26.0 Y60.7984 I1.3567 J-9.704
G1 X28.0
G2 X37.7984 Y51.0 I0.0 J-9.7984
G1 Y29.0
G2 X28.0 Y19.2016 I-9.7984 J0.0
G1 X26.0
G2 X16.2016 Y29.0 I0.0 J9.7984
G1 Y51.0
G2 X24.6433 Y60.704 I9.7984 J0.0
G1 F250.0 X24.5326 Y61.4963
G2 F800.0 X26.0 Y61.5984 I1.4674 J-10.4963
G1 X28.0
G2 X38.5984 Y51.0 I0.0 J-10.5984
G1 Y29.0
G2 X28.0 Y18.4016 I-10.5984 J0.0
G1 X26.0
G2 X15.4016 Y29.0 I0.0 J10.5984
G1 Y51.0
G2 X24.5326 Y61.4963 I10.5984 J0.0
G1 F250.0 X24.4218 Y62.2886
G2 F800.0 X26.0 Y62.3984 I1.5782 J-11.2886
G1 X28.0
G2 X39.3984 Y51.0 I0.0 J-11.3984
G1 Y29.0
G2 X28.0 Y17.6016 I-11.3984 J0.0
G1 X26.0
G2 X14.6016 Y29.0 I0.0 J11.3984
G1 Y51.0
G2 X24.4218 Y62.2886 I11.3984 J0.0
G1 F250.0 X24.311 Y63.0809
G2 F800.0 X26.0 Y63.1984 I1.689 J-12.0809
G1 X28.0
G2 X40.1984 Y51.0 I0.0 J-12.1984
G1 Y29.0
G2 X28.0 Y16.8016 I-12.1984 J0.0
G1 X26.0
G2 X13.8016 Y29.0 I0.0 J12.1984
G1 Y51.0
G2 X24.311 Y63.0809 I12.1984 J0.0
G1 F250.0 X24.2003 Y63.8732
G2 F800.0 X26.0 Y63.9984 I1.7997 J-12.8732
G1 X28.0
G2 X40.9984 Y51.0 I0.0 J-12.9984
G1 Y29.0
G2 X28.0 Y16.0016 I-12.9984 J0.0
G1 X26.0
G2 X13.0016 Y29.0 I0.0 J12.9984
G1 Y51.0
G2 X24.2003 Y63.8732 I12.9984 J0.0
G1 F250.0 X24.0895 Y64.6655
G2 F800.0 X26.0 Y64.7984 I1.9105 J-13.6655
G1 X28.0
G2 X41.7984 Y51.0 I0.0 J-13.7984
G1 Y29.0
G2 X28.0 Y15.2016 I-13.7984 J0.0
G1 X26.0
G2 X12.2016 Y29.0 I0.0 J13.7984
G1 Y51.0
G2 X24.0895 Y64.6655 I13.7984 J0.0
G0 Z3.0
G0 X11.8
G0 Z-2.0
G1 F250.0 Z-4.5
G1 F800.0 Y72.0331
G3 X17.9669 Y78.2 I-5.8 J11.9669
G1 X36.0331
G3 X41.3508 Y72.4832 I11.9669 J5.8
G3 X42.2 Y72.0331 I6.6492 J11.5168
G1 Y17.9669
G3 X41.3508 Y17.5168 I5.8 J-11.9669
G3 X36.0331 Y11.8 I6.6492 J-11.5168
G1 X17.9669
G3 X11.8 Y17.9669 I-11.9669 J-5.8
G1 Y64.6655
G1 F250.0 X11.0
G1 F800.0 Y72.5453
G3 X17.4547 Y79.0 I-5.0 J11.4547
G1 X36.5453
G3 X41.7508 Y73.1761 I11.4547 J5.0
G3 X43.0 Y72.5453 I6.2492 J10.8239
G1 Y17.4547
G3 X41.7508 Y16.8239 I5.0 J-11.4547
G3 X36.5453 Y11.0 I6.2492 J-10.8239
G1 X17.4547
G3 X11.0 Y17.4547 I-11.4547 J-5.0
G1 Y64.6655
G1 F250.0 X10.2
G1 F800.0 Y73.0815
G3 X16.9185 Y79.8 I-4.2 J10.9185
G1 X37.0815
G3 X42.1508 Y73.8689 I10.9185 J4.2
G3 X43.8 Y73.0815 I5.8492 J10.1311
G1 Y16.9185
G3 X42.1508 Y16.1311 I4.2 J-10.9185
G3 X37.0815 Y10.2 I5.8492 J-10.1311
G1 X16.9185
G3 X10.2 Y16.9185 I-10.9185 J-4.2
G1 Y64.6655
G1 F250.0 X9.4
G1 F800.0 Y73.6455
G3 X16.3545 Y80.6 I-3.4 J10.3545
G1 X37.6455
G3 X42.5508 Y74.5617 I10.3545 J3.4
G3 X44.6 Y73.6455 I5.4492 J9.4383
G1 Y16.3545
G3 X42.5508 Y15.4383 I3.4 J-10.3545
G3 X37.6455 Y9.4 I5.4492 J-9.4383
G1 X16.3545
G3 X9.4 Y16.3545 I-10.3545 J-3.4
G1 Y64.6655
G1 F250.0 X8.6
G1 F800.0 Y74.242
G3 X15.758 Y81.4 I-2.6 J9.758
G1 X38.242
G3 X42.9508 Y75.2545 I9.758 J2.6
G3 X45.4 Y74.242 I5.0492 J8.7455
G1 Y15.758
G3 X42.9508 Y14.7455 I2.6 J-9.758
G3 X38.242 Y8.6 I5.0492 J-8.7455
G1 X15.758
G3 X8.6 Y15.758 I-9.758 J-2.6
G1 Y64.6655
G1 F250.0 X7.8
G1 F800.0 Y74.8775
G3 X15.1225 Y82.2 I-1.8 J9.1225
G1 X38.8775
G3 X43.3508 Y75.9473 I9.1225 J1.8
G3 X46.2 Y74.8775 I4.6492 J8.0527
G1 Y15.1225
G3 X43.3508 Y14.0527 I1.8 J-9.1225
G3 X38.8775 Y7.8 I4.6492 J-8.0527
G1 X15.1225
G3 X7.8 Y15.1225 I-9.1225 J-1.8
G1 Y64.6655
G1 F250.0 X7.0
G1 F800.0 Y75.5606
G3 X14.4394 Y83.0 I-1.0 J8.4394
G1 X39.5606
G3 X43.7508 Y76.6402 I8.4394 J1.0
G3 X47.0 Y75.5606 I4.2492 J7.3598
G1 Y14.4394
G3 X43.7508 Y13.3598 I1.0 J-8.4394
G3 X39.5606 Y7.0 I4.2492 J-7.3598
G1 X14.4394
G3 X7.0 Y14.4394 I-8.4394 J-1.0
G1 Y64.6655
G1 F250.0 X6.2
G1 F800.0 Y76.3042
G3 X13.6958 Y83.8 I-0.2 J7.6958
G1 X40.3042
G3 X44.1508 Y77.333 I7.6958 J0.2
G3 X47.8 Y76.3042 I3.8492 J6.667
G1 Y13.6958
G3 X44.1508 Y12.667 I0.2 J-7.6958
G3 X40.3042 Y6.2 I3.8492 J-6.667
G1 X13.6958
G3 X6.2 Y13.6958 I-7.6958 J-0.2
G1 Y64.6655
G1 F250.0 X5.4
G1 F800.0 Y77.1277
G3 X12.8984 Y84.0 I0.6 J6.8723
G3 X12.8723 Y84.6 I-6.8984 J0.0
G1 X41.1277
G3 X44.5508 Y78.0258 I6.8723 J-0.6
G3 X48.6 Y77.1277 I3.4492 J5.9742
G1 Y12.8723
G3 X44.5508 Y11.9742 I-0.6 J-6.8723
G3 X41.1277 Y5.4 I3.4492 J-5.9742
G1 X12.8723
G3 X12.8984 Y6.0 I-6.8723 J0.6
G3 X5.4 Y12.8723 I-6.8984 J0.0
G1 Y64.6655
G1 F250.0 X4.6
G1 F800.0 Y78.0645
G3 X12.0984 Y84.0 I1.4 J5.9355
G3 X11.9355 Y85.4 I-6.0984 J0.0
G1 X42.0645
G3 X44.9508 Y78.7186 I5.9355 J-1.4
G3 X49.4 Y78.0645 I3.0492 J5.2814
G1 Y11.9355
G3 X44.9508 Y11.2814 I-1.4 J-5.9355
G3 X42.0645 Y4.6 I3.0492 J-5.2814
G1 X11.9355
G3 X12.0984 Y6.0 I-5.9355 J1.4
G3 X4.6 Y11.9355 I-6.0984 J0.0
G1 Y64.6655
G1 F250.0 X3.8
G1 F800.0 Y79.1799
G3 X11.2984 Y84.0 I2.2 J4.8201
G3 X10.8201 Y86.2 I-5.2984 J0.0
G1 X43.1799
G3 X45.3508 Y79.4115 I4.8201 J-2.2
G3 X50.2 Y79.1799 I2.6492 J4.5885
G1 Y10.8201
G3 X45.3508 Y10.5885 I-2.2 J-4.8201
G3 X43.1799 Y3.8 I2.6492 J-4.5885
G1 X10.8201
G3 X11.2984 Y6.0 I-4.8201 J2.2
G3 X3.8 Y10.8201 I-5.2984 J0.0
G1 Y64.6655
G1 F250.0 X3.0
G1 F800.0 Y80.6459
G3 X3.75 Y80.1029 I3.0 J3.3541
G3 X10.5 Y84.0 I2.25 J3.8971
G3 X9.3541 Y87.0 I-4.5 J0.0
G1 X44.6459
G3 X45.75 Y80.1029 I3.3541 J-3.0
G3 X51.0 Y80.6459 I2.25 J3.8971
G1 Y9.3541
G3 X45.75 Y9.8971 I-3.0 J-3.3541
G3 X44.6459 Y3.0 I2.25 J-3.8971
G1 X9.3541
G3 X10.5 Y6.0 I-3.3541 J3.0
G3 X3.75 Y9.8971 I-4.5 J0.0
G3 X3.0 Y9.3541 I2.25 J-3.8971
G1 Y64.6655
G0 Z3.0
G0 X21.3925 Y71.0765
G0 Z-3.5
G1 F250.0 Z-6.0
G3 F800.0 X21.6584 Y71.4 I-15.3925 J12.9235
G1 X23.148
G3 X21.3925 Y71.0765 I2.852 J-20.4
G0 Z3.0
G0 X30.852 Y71.4
G0 Z-3.5
G1 F250.0 Z-6.0
G1 F800.0 X32.3416
G3 X32.6075 Y71.0765 I15.6584 J12.6
G3 X30.852 Y71.4 I-4.6075 J-20.0765
G1 F250.0 X30.7966 Y71.0039
G3 F800.0 X28.0 Y71.1984 I-2.7966 J-20.0039
G1 X26.0
G3 X20.2001 Y70.3478 I0.0 J-20.1984
G3 X21.4657 Y71.8 I-14.2001 J13.6522
G1 X32.5343
G3 X33.7999 Y70.3478 I15.4657 J12.2
G3 X30.7966 Y71.0039 I-5.7999 J-19.3478
G1 F250.0 X30.6859 Y70.2116
G3 F800.0 X28.0 Y70.3984 I-2.6859 J-19.2116
G1 X26.0
G3 X17.4 Y68.3879 I0.0 J-19.3984
G1 Y68.9272
G3 X21.0728 Y72.6 I-11.4 J15.0728
G1 X32.9272
G3 X36.6 Y68.9272 I15.0728 J11.4
G1 Y68.3879
G3 X30.6859 Y70.2116 I-8.6 J-17.3879
G1 F250.0 X30.5751 Y69.4193
G3 F800.0 X28.0 Y69.5984 I-2.5751 J-18.4193
G1 X26.0
G3 X16.6 Y67.0481 I0.0 J-18.5984
G1 Y69.3306
G3 X20.6694 Y73.4 I-10.6 J14.6694
G1 X33.3306
G3 X37.4 Y69.3306 I14.6694 J10.6
G1 Y67.0481
G3 X30.5751 Y69.4193 I-9.4 J-16.0481
G1 F250.0 X30.4643 Y68.627
G3 F800.0 X28.0 Y68.7984 I-2.4643 J-17.627
G1 X26.0
G3 X15.8 Y65.5857 I0.0 J-17.7984
G1 Y69.7454
G3 X20.2546 Y74.2 I-9.8 J14.2546
G1 X33.7454
G3 X38.2 Y69.7454 I14.2546 J9.8
G1 Y65.5857
G3 X30.4643 Y68.627 I-10.2 J-14.5857
G1 F250.0 X30.3536 Y67.8347
G3 F800.0 X28.0 Y67.9984 I-2.3536 J-16.8347
G1 X26.0
G3 X15.0 Y63.9594 I0.0 J-16.9984
G1 Y70.1726
G3 X19.8274 Y75.0 I-9.0 J13.8274
G1 X34.1726
G3 X39.0 Y70.1726 I13.8274 J9.0
G1 Y63.9594
G3 X30.3536 Y67.8347 I-11.0 J-12.9594
G1 F250.0 X30.2428 Y67.0424
G3 F800.0 X28.0 Y67.1984 I-2.2428 J-16.0424
G1 X26.0
G3 X14.2 Y62.0972 I0.0 J-16.1984
G1 Y70.6134
G3 X19.3866 Y75.8 I-8.2 J13.3866
G1 X34.6134
G3 X39.8 Y70.6134 I13.3866 J8.2
G1 Y62.0972
G3 X30.2428 Y67.0424 I-11.8 J-11.0972
G1 F250.0 X30.132 Y66.2501
G3 F800.0 X28.0 Y66.3984 I-2.132 J-15.2501
G1 X26.0
G3 X13.4 Y59.8516 I0.0 J-15.3984
G1 Y71.0693
G3 X18.9307 Y76.6 I-7.4 J12.9307
G1 X35.0693
G3 X40.5508 Y71.0976 I12.9307 J7.4
G3 X40.6 Y71.0693 I7.4492 J12.9024
G1 Y59.8516
G3 X30.132 Y66.2501 I-12.6 J-8.8516
G1 F250.0 X30.0213 Y65.4578
G3 F800.0 X28.0 Y65.5984 I-2.0213 J-14.4578
G1 X26.0
G3 X12.6 Y56.7925 I0.0 J-14.5984
G1 Y71.5419
G3 X18.4581 Y77.4 I-6.6 J12.4581
G1 X35.5419
G3 X40.9508 Y71.7904 I12.4581 J6.6
G3 X41.4 Y71.5419 I7.0492 J12.2096
G1 Y56.7925
G3 X30.0213 Y65.4578 I-13.4 J-5.7925
G0 Z3.0
G0 X34.6246 Y14.2182
G0 Z-3.5
G1 F250.0 Z-6.0
G3 F800.0 X34.6134 Y14.2 I13.3754 J-8.2182
G1 X34.5839
G3 X34.6246 Y14.2182 I-6.5839 J14.8
G0 Z3.0
G0 X19.4161 Y14.2
G0 Z-3.5
G1 F250.0 Z-6.0
G1 F800.0 X19.3866
G3 X19.3754 Y14.2182 I-13.3866 J-8.2
G3 X19.4161 Y14.2 I6.6246 J14.7818
G1 F250.0 X19.7412 Y14.9309
G3 F800.0 X26.0 Y13.6016 I6.2588 J14.0691
G1 X28.0
G3 X40.6 Y20.1484 I0.0 J15.3984
G1 Y18.9307
G3 X40.5508 Y18.9024 I7.4 J-12.9307
G3 X35.0693 Y13.4 I7.4492 J-12.9024
G1 X18.9307
G3 X13.4 Y18.9307 I-12.9307 J-7.4
G1 Y20.1484
G3 X19.7412 Y14.9309 I12.6 J8.8516
G1 F250.0 X20.0664 Y15.6619
G3 F800.0 X26.0 Y14.4016 I5.9336 J13.3381
G1 X28.0
G3 X41.4 Y23.2075 I0.0 J14.5984
G1 Y18.4581
G3 X40.9508 Y18.2096 I6.6 J-12.4581
G3 X35.5419 Y12.6 I7.0492 J-12.2096
G1 X18.4581
G3 X12.6 Y18.4581 I-12.4581 J-6.6
G1 Y23.2075
G3 X20.0664 Y15.6619 I13.4 J5.7925
G0 Z3.0
G0 X23.6432 Y23.7022
G0 Z-3.5
G1 F250.0 Z-6.0
G3 F800.0 X26.0 Y23.2016 I2.3568 J5.2978
G1 X28.0
G3 X33.7984 Y29.0 I0.0 J5.7984
G1 Y51.0
G3 X28.0 Y56.7984 I-5.7984 J0.0
G1 X26.0
G3 X20.2016 Y51.0 I0.0 J-5.7984
G1 Y29.0
G3 X23.6432 Y23.7022 I5.7984 J0.0
G1 F250.0 X23.9677 Y24.4316
G3 F800.0 X26.0 Y24.0 I2.0323 J4.5684
G1 X28.0
G3 X33.0 Y29.0 I0.0 J5.0
G1 Y51.0
G3 X28.0 Y56.0 I-5.0 J0.0
G1 X26.0
G3 X21.0 Y51.0 I0.0 J-5.0
G1 Y29.0
G3 X23.9677 Y24.4316 I5.0 J0.0
G0 Z3.0
G0 X23.318 Y22.9712
G0 Z-3.5
G1 F250.0 Z-6.0
G2 F800.0 X19.4016 Y29.0 I2.682 J6.0288
G1 Y51.0
G2 X26.0 Y57.5984 I6.5984 J0.0
G1 X28.0
G2 X34.5984 Y51.0 I0.0 J-6.5984
G1 Y29.0
G2 X28.0 Y22.4016 I-6.5984 J0.0
G1 X26.0
G2 X23.318 Y22.9712 I0.0 J6.5984
G1 F250.0 X22.9929 Y22.2403
G2 F800.0 X18.6016 Y29.0 I3.0071 J6.7597
G1 Y51.0
G2 X26.0 Y58.3984 I7.3984 J0.0
G1 X28.0
G2 X35.3984 Y51.0 I0.0 J-7.3984
G1 Y29.0
G2 X28.0 Y21.6016 I-7.3984 J0.0
G1 X26.0
G2 X22.9929 Y22.2403 I0.0 J7.3984
G1 F250.0 X22.6677 Y21.5094
G2 F800.0 X17.8016 Y29.0 I3.3323 J7.4906
G1 Y51.0
G2 X26.0 Y59.1984 I8.1984 J0.0
G1 X28.0
G2 X36.1984 Y51.0 I0.0 J-8.1984
G1 Y29.0
G2 X28.0 Y20.8016 I-8.1984 J0.0
G1 X26.0
G2 X22.6677 Y21.5094 I0.0 J8.1984
G1 F250.0 X22.3425 Y20.7784
G2 F800.0 X17.0016 Y29.0 I3.6575 J8.2216
G1 Y51.0
G2 X26.0 Y59.9984 I8.9984 J0.0
G1 X28.0
G2 X36.9984 Y51.0 I0.0 J-8.9984
G1 Y29.0
G2 X28.0 Y20.0016 I-8.9984 J0.0
G1 X26.0
G2 X22.3425 Y20.7784 I0.0 J8.9984
G1 F250.0 X22.0174 Y20.0475
G2 F800.0 X16.2016 Y29.0 I3.9826 J8.9525
G1 Y51.0
G2 X26.0 Y60.7984 I9.7984 J0.0
G1 X28.0
G2 X37.7984 Y51.0 I0.0 J-9.7984
G1 Y29.0
G2 X28.0 Y19.2016 I-9.7984 J0.0
G1 X26.0
G2 X22.0174 Y20.0475 I0.0 J9.7984
G1 F250.0 X21.6922 Y19.3166
G2 F800.0 X15.4016 Y29.0 I4.3078 J9.6834
G1 Y51.0
G2 X26.0 Y61.5984 I10.5984 J0.0
G1 X28.0
G2 X38.5984 Y51.0 I0.0 J-10.5984
G1 Y29.0
G2 X28.0 Y18.4016 I-10.5984 J0.0
G1 X26.0
G2 X21.6922 Y19.3166 I0.0 J10.5984
G1 F250.0 X21.3671 Y18.5856
G2 F800.0 X14.6016 Y29.0 I4.6329 J10.4144
G1 Y51.0
G2 X26.0 Y62.3984 I11.3984 J0.0
G1 X28.0
G2 X39.3984 Y51.0 I0.0 J-11.3984
G1 Y29.0
G2 X28.0 Y17.6016 I-11.3984 J0.0
G1 X26.0
G2 X21.3671 Y18.5856 I0.0 J11.3984
G1 F250.0 X21.0419 Y17.8547
G2 F800.0 X13.8016 Y29.0 I4.9581 J11.1453
G1 Y51.0
G2 X26.0 Y63.1984 I12.1984 J0.0
G1 X28.0
G2 X40.1984 Y51.0 I0.0 J-12.1984
G1 Y29.0
G2 X28.0 Y16.8016 I-12.1984 J0.0
G1 X26.0
G2 X21.0419 Y17.8547 I0.0 J12.1984
G1 F250.0 X20.7167 Y17.1237
G2 F800.0 X13.0016 Y29.0 I5.2833 J11.8763
G1 Y51.0
G2 X26.0 Y63.9984 I12.9984 J0.0
G1 X28.0
G2 X40.9984 Y51.0 I0.0 J-12.9984
G1 Y29.0
G2 X28.0 Y16.0016 I-12.9984 J0.0
G1 X26.0
G2 X20.7167 Y17.1237 I0.0 J12.9984
G1 F250.0 X20.3916 Y16.3928
G2 F800.0 X12.2016 Y29.0 I5.6084 J12.6072
G1 Y51.0
G2 X26.0 Y64.7984 I13.7984 J0.0
G1 X28.0
G2 X41.7984 Y51.0 I0.0 J-13.7984
G1 Y29.0
G2 X28.0 Y15.2016 I-13.7984 J0.0
G1 X26.0
G2 X20.3916 Y16.3928 I0.0 J13.7984
G0 Z3.0
G0 X16.7811 Y13.7855
G0 Z-3.5
G1 F250.0 Z-6.0
G3 F800.0 X11.8 Y17.9669 I-10.7811 J-7.7855
G1 Y72.0331
G3 X17.9669 Y78.2 I-5.8 J11.9669
G1 X36.0331
G3 X41.3508 Y72.4832 I11.9669 J5.8
G3 X42.2 Y72.0331 I6.6492 J11.5168
G1 Y17.9669
G3 X41.3508 Y17.5168 I5.8 J-11.9669
G3 X36.0331 Y11.8 I6.6492 J-11.5168
G1 X17.9669
G3 X16.7811 Y13.7855 I-11.9669 J-5.8
G1 F250.0 X16.1326 Y13.3172
G3 F800.0 X11.0 Y17.4547 I-10.1326 J-7.3172
G1 Y72.5453
G3 X17.4547 Y79.0 I-5.0 J11.4547
G1 X36.5453
G3 X41.7508 Y73.1761 I11.4547 J5.0
G3 X43.0 Y72.5453 I6.2492 J10.8239
G1 Y17.4547
G3 X41.7508 Y16.8239 I5.0 J-11.4547
G3 X36.5453 Y11.0 I6.2492 J-10.8239
G1 X17.4547
G3 X16.1326 Y13.3172 I-11.4547 J-5.0
G1 F250.0 X15.484 Y12.8488
G3 F800.0 X10.2 Y16.9185 I-9.484 J-6.8488
G1 Y73.0815
G3 X16.9185 Y79.8 I-4.2 J10.9185
G1 X37.0815
G3 X42.1508 Y73.8689 I10.9185 J4.2
G3 X43.8 Y73.0815 I5.8492 J10.1311
G1 Y16.9185
G3 X42.1508 Y16.1311 I4.2 J-10.9185
G3 X37.0815 Y10.2 I5.8492 J-10.1311
G1 X16.9185
G3 X15.484 Y12.8488 I-10.9185 J-4.2
G1 F250.0 X14.8354 Y12.3805
G3 F800.0 X9.4 Y16.3545 I-8.8354 J-6.3805
G1 Y73.6455
G3 X16.3545 Y80.6 I-3.4 J10.3545
G1 X37.6455
G3 X42.5508 Y74.5617 I10.3545 J3.4
G3 X44.6 Y73.6455 I5.4492 J9.4383
G1 Y16.3545
G3 X42.5508 Y15.4383 I3.4 J-10.3545
G3 X37.6455 Y9.4 I5.4492 J-9.4383
G1 X16.3545
G3 X14.8354 Y12.3805 I-10.3545 J-3.4
G1 F250.0 X14.1869 Y11.9121
G3 F800.0 X8.6 Y15.758 I-8.1869 J-5.9121
G1 Y74.242
G3 X15.758 Y81.4 I-2.6 J9.758
G1 X38.242
G3 X42.9508 Y75.2545 I9.758 J2.6
G3 X45.4 Y74.242 I5.0492 J8.7455
G1 Y15.758
G3 X42.9508 Y14.7455 I2.6 J-9.758
G3 X38.242 Y8.6 I5.0492 J-8.7455
G1 X15.758
G3 X14.1869 Y11.9121 I-9.758 J-2.6
G1 F250.0 X13.5383 Y11.4437
G3 F800.0 X7.8 Y15.1225 I-7.5383 J-5.4437
G1 Y74.8775
G3 X15.1225 Y82.2 I-1.8 J9.1225
G1 X38.8775
G3 X43.3508 Y75.9473 I9.1225 J1.8
G3 X46.2 Y74.8775 I4.6492 J8.0527
G1 Y15.1225
G3 X43.3508 Y14.0527 I1.8 J-9.1225
G3 X38.8775 Y7.8 I4.6492 J-8.0527
G1 X15.1225
G3 X13.5383 Y11.4437 I-9.1225 J-1.8
G1 F250.0 X12.8897 Y10.9754
G3 F800.0 X7.0 Y14.4394 I-6.8897 J-4.9754
G1 Y75.5606
G3 X14.4394 Y83.0 I-1.0 J8.4394
G1 X39.5606
G3 X43.7508 Y76.6402 I8.4394 J1.0
G3 X47.0 Y75.5606 I4.2492 J7.3598
G1 Y14.4394
G3 X43.7508 Y13.3598 I1.0 J-8.4394
G3 X39.5606 Y7.0 I4.2492 J-7.3598
G1 X14.4394
G3 X12.8897 Y10.9754 I-8.4394 J-1.0
G1 F250.0 X12.2412 Y10.507
G3 F800.0 X6.2 Y13.6958 I-6.2412 J-4.507
G1 Y76.3042
G3 X13.6958 Y83.8 I-0.2 J7.6958
G1 X40.3042
G3 X44.1508 Y77.333 I7.6958 J0.2
G3 X47.8 Y76.3042 I3.8492 J6.667
G1 Y13.6958
G3 X44.1508 Y12.667 I0.2 J-7.6958
G3 X40.3042 Y6.2 I3.8492 J-6.667
G1 X13.6958
G3 X12.2412 Y10.507 I-7.6958 J-0.2
G1 F250.0 X11.5926 Y10.0387
G3 F800.0 X5.4 Y12.8723 I-5.5926 J-4.0387
G1 Y77.1277
G3 X12.8984 Y84.0 I0.6 J6.8723
G3 X12.8723 Y84.6 I-6.8984 J0.0
G1 X41.1277
G3 X44.5508 Y78.0258 I6.8723 J-0.6
G3 X48.6 Y77.1277 I3.4492 J5.9742
G1 Y12.8723
G3 X44.5508 Y11.9742 I-0.6 J-6.8723
G3 X41.1277 Y5.4 I3.4492 J-5.9742
G1 X12.8723
G3 X12.8984 Y6.0 I-6.8723 J0.6
G3 X11.5926 Y10.0387 I-6.8984 J0.0
G1 F250.0 X10.944 Y9.5703
G3 F800.0 X4.6 Y11.9355 I-4.944 J-3.5703
G1 Y78.0645
G3 X12.0984 Y84.0 I1.4 J5.9355
G3 X11.9355 Y85.4 I-6.0984 J0.0
G1 X42.0645
G3 X44.9508 Y78.7186 I5.9355 J-1.4
G3 X49.4 Y78.0645 I3.0492 J5.2814
G1 Y11.9355
G3 X44.9508 Y11.2814 I-1.4 J-5.9355
G3 X42.0645 Y4.6 I3.0492 J-5.2814
G1 X11.9355
G3 X12.0984 Y6.0 I-5.9355 J1.4
G3 X10.944 Y9.5703 I-6.0984 J0.0
G1 F250.0 X10.2955 Y9.1019
G3 F800.0 X3.8 Y10.8201 I-4.2955 J-3.1019
G1 Y79.1799
G3 X11.2984 Y84.0 I2.2 J4.8201
G3 X10.8201 Y86.2 I-5.2984 J0.0
G1 X43.1799
G3 X45.3508 Y79.4115 I4.8201 J-2.2
G3 X50.2 Y79.1799 I2.6492 J4.5885
G1 Y10.8201
G3 X45.3508 Y10.5885 I-2.2 J-4.8201
G3 X43.1799 Y3.8 I2.6492 J-4.5885
G1 X10.8201
G3 X11.2984 Y6.0 I-4.8201 J2.2
G3 X10.2955 Y9.1019 I-5.2984 J0.0
G1 F250.0 X9.6482 Y8.6345
G3 F800.0 X3.75 Y9.8971 I-3.6482 J-2.6345
G3 X3.0 Y9.3541 I2.25 J-3.8971
G1 Y80.6459
G3 X3.75 Y80.1029 I3.0 J3.3541
G3 X10.5 Y84.0 I2.25 J3.8971
G3 X9.3541 Y87.0 I-4.5 J0.0
G1 X44.6459
G3 X45.75 Y80.1029 I3.3541 J-3.0
G3 X51.0 Y80.6459 I2.25 J3.8971
G1 Y9.3541
G3 X45.75 Y9.8971 I-3.0 J-3.3541
G3 X44.6459 Y3.0 I2.25 J-3.8971
G1 X9.3541
G3 X10.5 Y6.0 I-3.3541 J3.0
G3 X9.6482 Y8.6345 I-4.5 J0.0
G0 Z3.0
G0 X19.3754 Y14.2182
G0 Z-5.0
G1 F250.0 Z-7.5
G3 F800.0 X19.4161 Y14.2 I6.6246 J14.7818
G1 X19.3866
G3 X19.3754 Y14.2182 I-13.3866 J-8.2
G0 Z3.0
G0 X34.5839 Y14.2
G0 Z-5.0
G1 F250.0 Z-7.5
G3 F800.0 X34.6246 Y14.2182 I-6.5839 J14.8
G3 X34.6134 Y14.2 I13.3754 J-8.2182
G1 X34.5839
G1 F250.0 X34.2588 Y14.9309
G3 F800.0 X40.6 Y20.1484 I-6.2588 J14.0691
G1 Y18.9307
G3 X40.5508 Y18.9024 I7.4 J-12.9307
G3 X35.0693 Y13.4 I7.4492 J-12.9024
G1 X18.9307
G3 X13.4 Y18.9307 I-12.9307 J-7.4
G1 Y20.1484
G3 X26.0 Y13.6016 I12.6 J8.8516
G1 X28.0
G3 X34.2588 Y14.9309 I0.0 J15.3984
G1 F250.0 X33.9336 Y15.6619
G3 F800.0 X41.4 Y23.2075 I-5.9336 J13.3381
G1 Y18.4581
G3 X40.9508 Y18.2096 I6.6 J-12.4581
G3 X35.5419 Y12.6 I7.0492 J-12.2096
G1 X18.4581
G3 X12.6 Y18.4581 I-12.4581 J-6.6
G1 Y23.2075
G3 X26.0 Y14.4016 I13.4 J5.7925
G1 X28.0
G3 X33.9336 Y15.6619 I0.0 J14.5984
G0 Z3.0
G0 X32.6075 Y71.0765
G0 Z-5.0
G1 F250.0 Z-7.5
G3 F800.0 X30.852 Y71.4 I-4.6075 J-20.0765
G1 X32.3416
G3 X32.6075 Y71.0765 I15.6584 J12.6
G0 Z3.0
G0 X23.148 Y71.4
G0 Z-5.0
G1 F250.0 Z-7.5
G3 F800.0 X21.3925 Y71.0765 I2.852 J-20.4
G3 X21.6584 Y71.4 I-15.3925 J12.9235
G1 X23.148
G1 F250.0 X23.2034 Y71.0039
G3 F800.0 X20.2001 Y70.3478 I2.7966 J-20.0039
G3 X21.4657 Y71.8 I-14.2001 J13.6522
G1 X32.5343
G3 X33.7999 Y70.3478 I15.4657 J12.2
G3 X28.0 Y71.1984 I-5.7999 J-19.3478
G1 X26.0
G3 X23.2034 Y71.0039 I0.0 J-20.1984
G1 F250.0 X23.3141 Y70.2116
G3 F800.0 X17.4 Y68.3879 I2.6859 J-19.2116
G1 Y68.9272
G3 X21.0728 Y72.6 I-11.4 J15.0728
G1 X32.9272
G3 X36.6 Y68.9272 I15.0728 J11.4
G1 Y68.3879
G3 X28.0 Y70.3984 I-8.6 J-17.3879
G1 X26.0
G3 X23.3141 Y70.2116 I0.0 J-19.3984
G1 F250.0 X23.4249 Y69.4193
G3 F800.0 X16.6 Y67.0481 I2.5751 J-18.4193
G1 Y69.3306
G3 X20.6694 Y73.4 I-10.6 J14.6694
G1 X33.3306
G3 X37.4 Y69.3306 I14.6694 J10.6
G1 Y67.0481
G3 X28.0 Y69.5984 I-9.4 J-16.0481
G1 X26.0
G3 X23.4249 Y69.4193 I0.0 J-18.5984
G1 F250.0 X23.5357 Y68.627
G3 F800.0 X15.8 Y65.5857 I2.4643 J-17.627
G1 Y69.7454
G3 X20.2546 Y74.2 I-9.8 J14.2546
G1 X33.7454
G3 X38.2 Y69.7454 I14.2546 J9.8
G1 Y65.5857
G3 X28.0 Y68.7984 I-10.2 J-14.5857
G1 X26.0
G3 X23.5357 Y68.627 I0.0 J-17.7984
G1 F250.0 X23.6464 Y67.8347
G3 F800.0 X15.0 Y63.9594 I2.3536 J-16.8347
G1 Y70.1726
G3 X19.8274 Y75.0 I-9.0 J13.8274
G1 X34.1726
G3 X39.0 Y70.1726 I13.8274 J9.0
G1 Y63.9594
G3 X28.0 Y67.9984 I-11.0 J-12.9594
G1 X26.0
G3 X23.6464 Y67.8347 I0.0 J-16.9984
G1 F250.0 X23.7572 Y67.0424
G3 F800.0 X14.2 Y62.0972 I2.2428 J-16.0424
G1 Y70.6134
G3 X19.3866 Y75.8 I-8.2 J13.3866
G1 X34.6134
G3 X39.8 Y70.6134 I13.3866 J8.2
G1 Y62.0972
G3 X28.0 Y67.1984 I-11.8 J-11.0972
G1 X26.0
G3 X23.7572 Y67.0424 I0.0 J-16.1984
G1 F250.0 X23.868 Y66.2501
G3 F800.0 X13.4 Y59.8516 I2.132 J-15.2501
G1 Y71.0693
G3 X18.9307 Y76.6 I-7.4 J12.9307
G1 X35.0693
G3 X40.5508 Y71.0976 I12.9307 J7.4
G3 X40.6 Y71.0693 I7.4492 J12.9024
G1 Y59.8516
G3 X28.0 Y66.3984 I-12.6 J-8.8516
G1 X26.0
G3 X23.868 Y66.2501 I0.0 J-15.3984
G1 F250.0 X23.9787 Y65.4578
G3 F800.0 X12.6 Y56.7925 I2.0213 J-14.4578
G1 Y71.5419
G3 X18.4581 Y77.4 I-6.6 J12.4581
G1 X35.5419
G3 X40.9508 Y71.7904 I12.4581 J6.6
G3 X41.4 Y71.5419 I7.0492 J12.2096
G1 Y56.7925
G3 X28.0 Y65.5984 I-13.4 J-5.7925
G1 X26.0
G3 X23.9787 Y65.4578 I0.0 J-14.5984
G0 Z3.0
G0 X25.1972 Y56.7426
G0 Z-5.0
G1 F250.0 Z-7.5
G3 F800.0 X20.2016 Y51.0 I0.8028 J-5.7426
G1 Y29.0
G3 X26.0 Y23.2016 I5.7984 J0.0
G1 X28.0
G3 X33.7984 Y29.0 I0.0 J5.7984
G1 Y51.0
G3 X28.0 Y56.7984 I-5.7984 J0.0
G1 X26.0
G3 X25.1972 Y56.7426 I0.0 J-5.7984
G1 F250.0 X25.3077 Y55.9518
G3 F800.0 X21.0 Y51.0 I0.6923 J-4.9518
G1 Y29.0
G3 X26.0 Y24.0 I5.0 J0.0
G1 X28.0
G3 X33.0 Y29.0 I0.0 J5.0
G1 Y51.0
G3 X28.0 Y56.0 I-5.0 J0.0
G1 X26.0
G3 X25.3077 Y55.9518 I0.0 J-5.0
G0 Z3.0
G0 X25.0864 Y57.5348
G0 Z-5.0
G1 F250.0 Z-7.5
G2 F800.0 X26.0 Y57.5984 I0.9136 J-6.5348
G1 X28.0
G2 X34.5984 Y51.0 I0.0 J-6.5984
G1 Y29.0
G2 X28.0 Y22.4016 I-6.5984 J0.0
G1 X26.0
G2 X19.4016 Y29.0 I0.0 J6.5984
G1 Y51.0
G2 X25.0864 Y57.5348 I6.5984 J0.0
G1 F250.0 X24.9756 Y58.3271
G2 F800.0 X26.0 Y58.3984 I1.0244 J-7.3271
G1 X28.0
G2 X35.3984 Y51.0 I0.0 J-7.3984
G1 Y29.0
G2 X28.0 Y21.6016 I-7.3984 J0.0
G1 X26.0
G2 X18.6016 Y29.0 I0.0 J7.3984
G1 Y51.0
G2 X24.9756 Y58.3271 I7.3984 J0.0
G1 F250.0 X24.8649 Y59.1194
G2 F800.0 X26.0 Y59.1984 I1.1351 J-8.1194
G1 X28.0
G2 X36.1984 Y51.0 I0.0 J-8.1984
G1 Y29.0
G2 X28.0 Y20.8016 I-8.1984 J0.0
G1 X26.0
G2 X17.8016 Y29.0 I0.0 J8.1984
G1 Y51.0
G2 X24.8649 Y59.1194 I8.1984 J0.0
G1 F250.0 X24.7541 Y59.9117
G2 F800.0 X26.0 Y59.9984 I1.2459 J-8.9117
G1 X28.0
G2 X36.9984 Y51.0 I0.0 J-8.9984
G1 Y29.0
G2 X28.0 Y20.0016 I-8.9984 J0.0
G1 X26.0
G2 X17.0016 Y29.0 I0.0 J8.9984
G1 Y51.0
G2 X24.7541 Y59.9117 I8.9984 J0.0
G1 F250.0 X24.6433 Y60.704
G2 F800.0 X26.0 Y60.7984 I1.3567 J-9.704
G1 X28.0
G2 X37.7984 Y51.0 I0.0 J-9.7984
G1 Y29.0
G2 X28.0 Y19.2016 I-9.7984 J0.0
G1 X26.0
G2 X16.2016 Y29.0 I0.0 J9.7984
G1 Y51.0
G2 X24.6433 Y60.704 I9.7984 J0.0
G1 F250.0 X24.5326 Y61.4963
G2 F800.0 X26.0 Y61.5984 I1.4674 J-10.4963
G1 X28.0
G2 X38.5984 Y51.0 I0.0 J-10.5984
G1 Y29.0
G2 X28.0 Y18.4016 I-10.5984 J0.0
G1 X26.0
G2 X15.4016 Y29.0 I0.0 J10.5984
G1 Y51.0
G2 X24.5326 Y61.4963 I10.5984 J0.0
G1 F250.0 X24.4218 Y62.2886
G2 F800.0 X26.0 Y62.3984 I1.5782 J-11.2886
G1 X28.0
G2 X39.3984 Y51.0 I0.0 J-11.3984
G1 Y29.0
G2 X28.0 Y17.6016 I-11.3984 J0.0
G1 X26.0
G2 X14.6016 Y29.0 I0.0 J11.3984
G1 Y51.0
G2 X24.4218 Y62.2886 I11.3984 J0.0
G1 F250.0 X24.311 Y63.0809
G2 F800.0 X26.0 Y63.1984 I1.689 J-12.0809
G1 X28.0
G2 X40.1984 Y51.0 I0.0 J-12.1984
G1 Y29.0
G2 X28.0 Y16.8016 I-12.1984 J0.0
G1 X26.0
G2 X13.8016 Y29.0 I0.0 J12.1984
G1 Y51.0
G2 X24.311 Y63.0809 I12.1984 J0.0
G1 F250.0 X24.2003 Y63.8732
G2 F800.0 X26.0 Y63.9984 I1.7997 J-12.8732
G1 X28.0
G2 X40.9984 Y51.0 I0.0 J-12.9984
G1 Y29.0
G2 X28.0 Y16.0016 I-12.9984 J0.0
G1 X26.0
G2 X13.0016 Y29.0 I0.0 J12.9984
G1 Y51.0
G2 X24.2003 Y63.8732 I12.9984 J0.0
G1 F250.0 X24.0895 Y64.6655
G2 F800.0 X26.0 Y64.7984 I1.9105 J-13.6655
G1 X28.0
G2 X41.7984 Y51.0 I0.0 J-13.7984
G1 Y29.0
G2 X28.0 Y15.2016 I-13.7984 J0.0
G1 X26.0
G2 X12.2016 Y29.0 I0.0 J13.7984
G1 Y51.0
G2 X24.0895 Y64.6655 I13.7984 J0.0
G0 Z3.0
G0 X11.8
G0 Z-5.0
G1 F250.0 Z-7.5
G1 F800.0 Y72.0331
G3 X17.9669 Y78.2 I-5.8 J11.9669
G1 X36.0331
G3 X41.3508 Y72.4832 I11.9669 J5.8
G3 X42.2 Y72.0331 I6.6492 J11.5168
G1 Y17.9669
G3 X41.3508 Y17.5168 I5.8 J-11.9669
G3 X36.0331 Y11.8 I6.6492 J-11.5168
G1 X17.9669
G3 X11.8 Y17.9669 I-11.9669 J-5.8
G1 Y64.6655
G1 F250.0 X11.0
G1 F800.0 Y72.5453
G3 X17.4547 Y79.0 I-5.0 J11.4547
G1 X36.5453
G3 X41.7508 Y73.1761 I11.4547 J5.0
G3 X43.0 Y72.5453 I6.2492 J10.8239
G1 Y17.4547
G3 X41.7508 Y16.8239 I5.0 J-11.4547
G3 X36.5453 Y11.0 I6.2492 J-10.8239
G1 X17.4547
G3 X11.0 Y17.4547 I-11.4547 J-5.0
G1 Y64.6655
G1 F250.0 X10.2
G1 F800.0 Y73.0815
G3 X16.9185 Y79.8 I-4.2 J10.9185
G1 X37.0815
G3 X42.1508 Y73.8689 I10.9185 J4.2
G3 X43.8 Y73.0815 I5.8492 J10.1311
G1 Y16.9185
G3 X42.1508 Y16.1311 I4.2 J-10.9185
G3 X37.0815 Y10.2 I5.8492 J-10.1311
G1 X16.9185
G3 X10.2 Y16.9185 I-10.9185 J-4.2
G1 Y64.6655
G1 F250.0 X9.4
G1 F800.0 Y73.6455
G3 X16.3545 Y80.6 I-3.4 J10.3545
G1 X37.6455
G3 X42.5508 Y74.5617 I10.3545 J3.4
G3 X44.6 Y73.6455 I5.4492 J9.4383
G1 Y16.3545
G3 X42.5508 Y15.4383 I3.4 J-10.3545
G3 X37.6455 Y9.4 I5.4492 J-9.4383
G1 X16.3545
G3 X9.4 Y16.3545 I-10.3545 J-3.4
G1 Y64.6655
G1 F250.0 X8.6
G1 F800.0 Y74.242
G3 X15.758 Y81.4 I-2.6 J9.758
G1 X38.242
G3 X42.9508 Y75.2545 I9.758 J2.6
G3 X45.4 Y74.242 I5.0492 J8.7455
G1 Y15.758
G3 X42.9508 Y14.7455 I2.6 J-9.758
G3 X38.242 Y8.6 I5.0492 J-8.7455
G1 X15.758
G3 X8.6 Y15.758 I-9.758 J-2.6
G1 Y64.6655
G1 F250.0 X7.8
G1 F800.0 Y74.8775
G3 X15.1225 Y82.2 I-1.8 J9.1225
G1 X38.8775
G3 X43.3508 Y75.9473 I9.1225 J1.8
G3 X46.2 Y74.8775 I4.6492 J8.0527
G1 Y15.1225
G3 X43.3508 Y14.0527 I1.8 J-9.1225
G3 X38.8775 Y7.8 I4.6492 J-8.0527
G1 X15.1225
G3 X7.8 Y15.1225 I-9.1225 J-1.8
G1 Y64.6655
G1 F250.0 X7.0
G1 F800.0 Y75.5606
G3 X14.4394 Y83.0 I-1.0 J8.4394
G1 X39.5606
G3 X43.7508 Y76.6402 I8.4394 J1.0
G3 X47.0 Y75.5606 I4.2492 J7.3598
G1 Y14.4394
G3 X43.7508 Y13.3598 I1.0 J-8.4394
G3 X39.5606 Y7.0 I4.2492 J-7.3598
G1 X14.4394
G3 X7.0 Y14.4394 I-8.4394 J-1.0
G1 Y64.6655
G1 F250.0 X6.2
G1 F800.0 Y76.3042
G3 X13.6958 Y83.8 I-0.2 J7.6958
G1 X40.3042
G3 X44.1508 Y77.333 I7.6958 J0.2
G3 X47.8 Y76.3042 I3.8492 J6.667
G1 Y13.6958
G3 X44.1508 Y12.667 I0.2 J-7.6958
G3 X40.3042 Y6.2 I3.8492 J-6.667
G1 X13.6958
G3 X6.2 Y13.6958 I-7.6958 J-0.2
G1 Y64.6655
G1 F250.0 X5.4
G1 F800.0 Y77.1277
G3 X12.8984 Y84.0 I0.6 J6.8723
G3 X12.8723 Y84.6 I-6.8984 J0.0
G1 X41.1277
G3 X44.5508 Y78.0258 I6.8723 J-0.6
G3 X48.6 Y77.1277 I3.4492 J5.9742
G1 Y12.8723
G3 X44.5508 Y11.9742 I-0.6 J-6.8723
G3 X41.1277 Y5.4 I3.4492 J-5.9742
G1 X12.8723
G3 X12.8984 Y6.0 I-6.8723 J0.6
G3 X5.4 Y12.8723 I-6.8984 J0.0
G1 Y64.6655
G1 F250.0 X4.6
G1 F800.0 Y78.0645
G3 X12.0984 Y84.0 I1.4 J5.9355
G3 X11.9355 Y85.4 I-6.0984 J0.0
G1 X42.0645
G3 X44.9508 Y78.7186 I5.9355 J-1.4
G3 X49.4 Y78.0645 I3.0492 J5.2814
G1 Y11.9355
G3 X44.9508 Y11.2814 I-1.4 J-5.9355
G3 X42.0645 Y4.6 I3.0492 J-5.2814
G1 X11.9355
G3 X12.0984 Y6.0 I-5.9355 J1.4
G3 X4.6 Y11.9355 I-6.0984 J0.0
G1 Y64.6655
G1 F250.0 X3.8
G1 F800.0 Y79.1799
G3 X11.2984 Y84.0 I2.2 J4.8201
G3 X10.8201 Y86.2 I-5.2984 J0.0
G1 X43.1799
G3 X45.3508 Y79.4115 I4.8201 J-2.2
G3 X50.2 Y79.1799 I2.6492 J4.5885
G1 Y10.8201
G3 X45.3508 Y10.5885 I-2.2 J-4.8201
G3 X43.1799 Y3.8 I2.6492 J-4.5885
G1 X10.8201
G3 X11.2984 Y6.0 I-4.8201 J2.2
G3 X3.8 Y10.8201 I-5.2984 J0.0
G1 Y64.6655
G1 F250.0 X3.0
G1 F800.0 Y80.6459
G3 X3.75 Y80.1029 I3.0 J3.3541
G3 X10.5 Y84.0 I2.25 J3.8971
G3 X9.3541 Y87.0 I-4.5 J0.0
G1 X44.6459
G3 X45.75 Y80.1029 I3.3541 J-3.0
G3 X51.0 Y80.6459 I2.25 J3.8971
G1 Y9.3541
G3 X45.75 Y9.8971 I-3.0 J-3.3541
G3 X44.6459 Y3.0 I2.25 J-3.8971
G1 X9.3541
G3 X10.5 Y6.0 I-3.3541 J3.0
G3 X3.75 Y9.8971 I-4.5 J0.0
G3 X3.0 Y9.3541 I2.25 J-3.8971
G1 Y64.6655
G0 Z3.0
G0 X21.3925 Y71.0765
G0 Z-6.5
G1 F250.0 Z-8.0
G3 F800.0 X21.6584 Y71.4 I-15.3925 J12.9235
G1 X23.148
G3 X21.3925 Y71.0765 I2.852 J-20.4
G0 Z3.0
G0 X30.852 Y71.4
G0 Z-6.5
G1 F250.0 Z-8.0
G1 F800.0 X32.3416
G3 X32.6075 Y71.0765 I15.6584 J12.6
G3 X30.852 Y71.4 I-4.6075 J-20.0765
G1 F250.0 X30.7966 Y71.0039
G3 F800.0 X28.0 Y71.1984 I-2.7966 J-20.0039
G1 X26.0
G3 X20.2001 Y70.3478 I0.0 J-20.1984
G3 X21.4657 Y71.8 I-14.2001 J13.6522
G1 X32.5343
G3 X33.7999 Y70.3478 I15.4657 J12.2
G3 X30.7966 Y71.0039 I-5.7999 J-19.3478
G1 F250.0 X30.6859 Y70.2116
G3 F800.0 X28.0 Y70.3984 I-2.6859 J-19.2116
G1 X26.0
G3 X17.4 Y68.3879 I0.0 J-19.3984
G1 Y68.9272
G3 X21.0728 Y72.6 I-11.4 J15.0728
G1 X32.9272
G3 X36.6 Y68.9272 I15.0728 J11.4
G1 Y68.3879
G3 X30.6859 Y70.2116 I-8.6 J-17.3879
G1 F250.0 X30.5751 Y69.4193
G3 F800.0 X28.0 Y69.5984 I-2.5751 J-18.4193
G1 X26.0
G3 X16.6 Y67.0481 I0.0 J-18.5984
G1 Y69.3306
G3 X20.6694 Y73.4 I-10.6 J14.6694
G1 X33.3306
G3 X37.4 Y69.3306 I14.6694 J10.6
G1 Y67.0481
G3 X30.5751 Y69.4193 I-9.4 J-16.0481
G1 F250.0 X30.4643 Y68.627
G3 F800.0 X28.0 Y68.7984 I-2.4643 J-17.627
G1 X26.0
G3 X15.8 Y65.5857 I0.0 J-17.7984
G1 Y69.7454
G3 X20.2546 Y74.2 I-9.8 J14.2546
G1 X33.7454
G3 X38.2 Y69.7454 I14.2546 J9.8
G1 Y65.5857
G3 X30.4643 Y68.627 I-10.2 J-14.5857
G1 F250.0 X30.3536 Y67.8347
G3 F800.0 X28.0 Y67.9984 I-2.3536 J-16.8347
G1 X26.0
G3 X15.0 Y63.9594 I0.0 J-16.9984
G1 Y70.1726
G3 X19.8274 Y75.0 I-9.0 J13.8274
G1 X34.1726
G3 X39.0 Y70.1726 I13.8274 J9.0
G1 Y63.9594
G3 X30.3536 Y67.8347 I-11.0 J-12.9594
G1 F250.0 X30.2428 Y67.0424
G3 F800.0 X28.0 Y67.1984 I-2.2428 J-16.0424
G1 X26.0
G3 X14.2 Y62.0972 I0.0 J-16.1984
G1 Y70.6134
G3 X19.3866 Y75.8 I-8.2 J13.3866
G1 X34.6134
G3 X39.8 Y70.6134 I13.3866 J8.2
G1 Y62.0972
G3 X30.2428 Y67.0424 I-11.8 J-11.0972
G1 F250.0 X30.132 Y66.2501
G3 F800.0 X28.0 Y66.3984 I-2.132 J-15.2501
G1 X26.0
G3 X13.4 Y59.8516 I0.0 J-15.3984
G1 Y71.0693
G3 X18.9307 Y76.6 I-7.4 J12.9307
G1 X35.0693
G3 X40.5508 Y71.0976 I12.9307 J7.4
G3 X40.6 Y71.0693 I7.4492 J12.9024
G1 Y59.8516
G3 X30.132 Y66.2501 I-12.6 J-8.8516
G1 F250.0 X30.0213 Y65.4578
G3 F800.0 X28.0 Y65.5984 I-2.0213 J-14.4578
G1 X26.0
G3 X12.6 Y56.7925 I0.0 J-14.5984
G1 Y71.5419
G3 X18.4581 Y77.4 I-6.6 J12.4581
G1 X35.5419
G3 X40.9508 Y71.7904 I12.4581 J6.6
G3 X41.4 Y71.5419 I7.0492 J12.2096
G1 Y56.7925
G3 X30.0213 Y65.4578 I-13.4 J-5.7925
G0 Z3.0
G0 X34.6246 Y14.2182
G0 Z-6.5
G1 F250.0 Z-8.0
G3 F800.0 X34.6134 Y14.2 I13.3754 J-8.2182
G1 X34.5839
G3 X34.6246 Y14.2182 I-6.5839 J14.8
G0 Z3.0
G0 X19.4161 Y14.2
G0 Z-6.5
G1 F250.0 Z-8.0
G1 F800.0 X19.3866
G3 X19.3754 Y14.2182 I-13.3866 J-8.2
G3 X19.4161 Y14.2 I6.6246 J14.7818
G1 F250.0 X19.7412 Y14.9309
G3 F800.0 X26.0 Y13.6016 I6.2588 J14.0691
G1 X28.0
G3 X40.6 Y20.1484 I0.0 J15.3984
G1 Y18.9307
G3 X40.5508 Y18.9024 I7.4 J-12.9307
G3 X35.0693 Y13.4 I7.4492 J-12.9024
G1 X18.9307
G3 X13.4 Y18.9307 I-12.9307 J-7.4
G1 Y20.1484
G3 X19.7412 Y14.9309 I12.6 J8.8516
G1 F250.0 X20.0664 Y15.6619
G3 F800.0 X26.0 Y14.4016 I5.9336 J13.3381
G1 X28.0
G3 X41.4 Y23.2075 I0.0 J14.5984
G1 Y18.4581
G3 X40.9508 Y18.2096 I6.6 J-12.4581
G3 X35.5419 Y12.6 I7.0492 J-12.2096
G1 X18.4581
G3 X12.6 Y18.4581 I-12.4581 J-6.6
G1 Y23.2075
G3 X20.0664 Y15.6619 I13.4 J5.7925
G0 Z3.0
G0 X23.6432 Y23.7022
G0 Z-5.5
G1 F250.0 Z-8.0
G3 F800.0 X26.0 Y23.2016 I2.3568 J5.2978
G1 X28.0
G3 X33.7984 Y29.0 I0.0 J5.7984
G1 Y51.0
G3 X28.0 Y56.7984 I-5.7984 J0.0
G1 X26.0
G3 X20.2016 Y51.0 I0.0 J-5.7984
G1 Y29.0
G3 X23.6432 Y23.7022 I5.7984 J0.0
G1 F250.0 X23.9677 Y24.4316
G3 F800.0 X26.0 Y24.0 I2.0323 J4.5684
G1 X28.0
G3 X33.0 Y29.0 I0.0 J5.0
G1 Y51.0
G3 X28.0 Y56.0 I-5.0 J0.0
G1 X26.0
G3 X21.0 Y51.0 I0.0 J-5.0
G1 Y29.0
G3 X23.9677 Y24.4316 I5.0 J0.0
G0 Z3.0
G0 X23.318 Y22.9712
G0 Z-5.5
G1 F250.0 Z-8.0
G2 F800.0 X19.4016 Y29.0 I2.682 J6.0288
G1 Y51.0
G2 X26.0 Y57.5984 I6.5984 J0.0
G1 X28.0
G2 X34.5984 Y51.0 I0.0 J-6.5984
G1 Y29.0
G2 X28.0 Y22.4016 I-6.5984 J0.0
G1 X26.0
G2 X23.318 Y22.9712 I0.0 J6.5984
G1 F250.0 X22.9929 Y22.2403
G2 F800.0 X18.6016 Y29.0 I3.0071 J6.7597
G1 Y51.0
G2 X26.0 Y58.3984 I7.3984 J0.0
G1 X28.0
G2 X35.3984 Y51.0 I0.0 J-7.3984
G1 Y29.0
G2 X28.0 Y21.6016 I-7.3984 J0.0
G1 X26.0
G2 X22.9929 Y22.2403 I0.0 J7.3984
G1 F250.0 X22.6677 Y21.5094
G2 F800.0 X17.8016 Y29.0 I3.3323 J7.4906
G1 Y51.0
G2 X26.0 Y59.1984 I8.1984 J0.0
G1 X28.0
G2 X36.1984 Y51.0 I0.0 J-8.1984
G1 Y29.0
G2 X28.0 Y20.8016 I-8.1984 J0.0
G1 X26.0
G2 X22.6677 Y21.5094 I0.0 J8.1984
G1 F250.0 X22.3425 Y20.7784
G2 F800.0 X17.0016 Y29.0 I3.6575 J8.2216
G1 Y51.0
G2 X26.0 Y59.9984 I8.9984 J0.0
G1 X28.0
G2 X36.9984 Y51.0 I0.0 J-8.9984
G1 Y29.0
G2 X28.0 Y20.0016 I-8.9984 J0.0
G1 X26.0
G2 X22.3425 Y20.7784 I0.0 J8.9984
G1 F250.0 X22.0174 Y20.0475
G2 F800.0 X16.2016 Y29.0 I3.9826 J8.9525
G1 Y51.0
G2 X26.0 Y60.7984 I9.7984 J0.0
G1 X28.0
G2 X37.7984 Y51.0 I0.0 J-9.7984
G1 Y29.0
G2 X28.0 Y19.2016 I-9.7984 J0.0
G1 X26.0
G2 X22.0174 Y20.0475 I0.0 J9.7984
G1 F250.0 X21.6922 Y19.3166
G2 F800.0 X15.4016 Y29.0 I4.3078 J9.6834
G1 Y51.0
G2 X26.0 Y61.5984 I10.5984 J0.0
G1 X28.0
G2 X38.5984 Y51.0 I0.0 J-10.5984
G1 Y29.0
G2 X28.0 Y18.4016 I-10.5984 J0.0
G1 X26.0
G2 X21.6922 Y19.3166 I0.0 J10.5984
G1 F250.0 X21.3671 Y18.5856
G2 F800.0 X14.6016 Y29.0 I4.6329 J10.4144
G1 Y51.0
G2 X26.0 Y62.3984 I11.3984 J0.0
G1 X28.0
G2 X39.3984 Y51.0 I0.0 J-11.3984
G1 Y29.0
G2 X28.0 Y17.6016 I-11.3984 J0.0
G1 X26.0
G2 X21.3671 Y18.5856 I0.0 J11.3984
G1 F250.0 X21.0419 Y17.8547
G2 F800.0 X13.8016 Y29.0 I4.9581 J11.1453
G1 Y51.0
G2 X26.0 Y63.1984 I12.1984 J0.0
G1 X28.0
G2 X40.1984 Y51.0 I0.0 J-12.1984
G1 Y29.0
G2 X28.0 Y16.8016 I-12.1984 J0.0
G1 X26.0
G2 X21.0419 Y17.8547 I0.0 J12.1984
G1 F250.0 X20.7167 Y17.1237
G2 F800.0 X13.0016 Y29.0 I5.2833 J11.8763
G1 Y51.0
G2 X26.0 Y63.9984 I12.9984 J0.0
G1 X28.0
G2 X40.9984 Y51.0 I0.0 J-12.9984
G1 Y29.0
G2 X28.0 Y16.0016 I-12.9984 J0.0
G1 X26.0
G2 X20.7167 Y17.1237 I0.0 J12.9984
G1 F250.0 X20.3916 Y16.3928
G2 F800.0 X12.2016 Y29.0 I5.6084 J12.6072
G1 Y51.0
G2 X26.0 Y64.7984 I13.7984 J0.0
G1 X28.0
G2 X41.7984 Y51.0 I0.0 J-13.7984
G1 Y29.0
G2 X28.0 Y15.2016 I-13.7984 J0.0
G1 X26.0
G2 X20.3916 Y16.3928 I0.0 J13.7984
G0 Z3.0
G0 X16.7811 Y13.7855
G0 Z-5.5
G1 F250.0 Z-8.0
G3 F800.0 X11.8 Y17.9669 I-10.7811 J-7.7855
G1 Y72.0331
G3 X17.9669 Y78.2 I-5.8 J11.9669
G1 X36.0331
G3 X41.3508 Y72.4832 I11.9669 J5.8
G3 X42.2 Y72.0331 I6.6492 J11.5168
G1 Y17.9669
G3 X41.3508 Y17.5168 I5.8 J-11.9669
G3 X36.0331 Y11.8 I6.6492 J-11.5168
G1 X17.9669
G3 X16.7811 Y13.7855 I-11.9669 J-5.8
G1 F250.0 X16.1326 Y13.3172
G3 F800.0 X11.0 Y17.4547 I-10.1326 J-7.3172
G1 Y72.5453
G3 X17.4547 Y79.0 I-5.0 J11.4547
G1 X36.5453
G3 X41.7508 Y73.1761 I11.4547 J5.0
G3 X43.0 Y72.5453 I6.2492 J10.8239
G1 Y17.4547
G3 X41.7508 Y16.8239 I5.0 J-11.4547
G3 X36.5453 Y11.0 I6.2492 J-10.8239
G1 X17.4547
G3 X16.1326 Y13.3172 I-11.4547 J-5.0
G1 F250.0 X15.484 Y12.8488
G3 F800.0 X10.2 Y16.9185 I-9.484 J-6.8488
G1 Y73.0815
G3 X16.9185 Y79.8 I-4.2 J10.9185
G1 X37.0815
G3 X42.1508 Y73.8689 I10.9185 J4.2
G3 X43.8 Y73.0815 I5.8492 J10.1311
G1 Y16.9185
G3 X42.1508 Y16.1311 I4.2 J-10.9185
G3 X37.0815 Y10.2 I5.8492 J-10.1311
G1 X16.9185
G3 X15.484 Y12.8488 I-10.9185 J-4.2
G1 F250.0 X14.8354 Y12.3805
G3 F800.0 X9.4 Y16.3545 I-8.8354 J-6.3805
G1 Y73.6455
G3 X16.3545 Y80.6 I-3.4 J10.3545
G1 X37.6455
G3 X42.5508 Y74.5617 I10.3545 J3.4
G3 X44.6 Y73.6455 I5.4492 J9.4383
G1 Y16.3545
G3 X42.5508 Y15.4383 I3.4 J-10.3545
G3 X37.6455 Y9.4 I5.4492 J-9.4383
G1 X16.3545
G3 X14.8354 Y12.3805 I-10.3545 J-3.4
G1 F250.0 X14.1869 Y11.9121
G3 F800.0 X8.6 Y15.758 I-8.1869 J-5.9121
G1 Y74.242
G3 X15.758 Y81.4 I-2.6 J9.758
G1 X38.242
G3 X42.9508 Y75.2545 I9.758 J2.6
G3 X45.4 Y74.242 I5.0492 J8.7455
G1 Y15.758
G3 X42.9508 Y14.7455 I2.6 J-9.758
G3 X38.242 Y8.6 I5.0492 J-8.7455
G1 X15.758
G3 X14.1869 Y11.9121 I-9.758 J-2.6
G1 F250.0 X13.5383 Y11.4437
G3 F800.0 X7.8 Y15.1225 I-7.5383 J-5.4437
G1 Y74.8775
G3 X15.1225 Y82.2 I-1.8 J9.1225
G1 X38.8775
G3 X43.3508 Y75.9473 I9.1225 J1.8
G3 X46.2 Y74.8775 I4.6492 J8.0527
G1 Y15.1225
G3 X43.3508 Y14.0527 I1.8 J-9.1225
G3 X38.8775 Y7.8 I4.6492 J-8.0527
G1 X15.1225
G3 X13.5383 Y11.4437 I-9.1225 J-1.8
G1 F250.0 X12.8897 Y10.9754
G3 F800.0 X7.0 Y14.4394 I-6.8897 J-4.9754
G1 Y75.5606
G3 X14.4394 Y83.0 I-1.0 J8.4394
G1 X39.5606
G3 X43.7508 Y76.6402 I8.4394 J1.0
G3 X47.0 Y75.5606 I4.2492 J7.3598
G1 Y14.4394
G3 X43.7508 Y13.3598 I1.0 J-8.4394
G3 X39.5606 Y7.0 I4.2492 J-7.3598
G1 X14.4394
G3 X12.8897 Y10.9754 I-8.4394 J-1.0
G1 F250.0 X12.2412 Y10.507
G3 F800.0 X6.2 Y13.6958 I-6.2412 J-4.507
G1 Y76.3042
G3 X13.6958 Y83.8 I-0.2 J7.6958
G1 X40.3042
G3 X44.1508 Y77.333 I7.6958 J0.2
G3 X47.8 Y76.3042 I3.8492 J6.667
G1 Y13.6958
G3 X44.1508 Y12.667 I0.2 J-7.6958
G3 X40.3042 Y6.2 I3.8492 J-6.667
G1 X13.6958
G3 X12.2412 Y10.507 I-7.6958 J-0.2
G1 F250.0 X11.5926 Y10.0387
G3 F800.0 X5.4 Y12.8723 I-5.5926 J-4.0387
G1 Y77.1277
G3 X12.8984 Y84.0 I0.6 J6.8723
G3 X12.8723 Y84.6 I-6.8984 J0.0
G1 X41.1277
G3 X44.5508 Y78.0258 I6.8723 J-0.6
G3 X48.6 Y77.1277 I3.4492 J5.9742
G1 Y12.8723
G3 X44.5508 Y11.9742 I-0.6 J-6.8723
G3 X41.1277 Y5.4 I3.4492 J-5.9742
G1 X12.8723
G3 X12.8984 Y6.0 I-6.8723 J0.6
G3 X11.5926 Y10.0387 I-6.8984 J0.0
G1 F250.0 X10.944 Y9.5703
G3 F800.0 X4.6 Y11.9355 I-4.944 J-3.5703
G1 Y78.0645
G3 X12.0984 Y84.0 I1.4 J5.9355
G3 X11.9355 Y85.4 I-6.0984 J0.0
G1 X42.0645
G3 X44.9508 Y78.7186 I5.9355 J-1.4
G3 X49.4 Y78.0645 I3.0492 J5.2814
G1 Y11.9355
G3 X44.9508 Y11.2814 I-1.4 J-5.9355
G3 X42.0645 Y4.6 I3.0492 J-5.2814
G1 X11.9355
G3 X12.0984 Y6.0 I-5.9355 J1.4
G3 X10.944 Y9.5703 I-6.0984 J0.0
G1 F250.0 X10.2955 Y9.1019
G3 F800.0 X3.8 Y10.8201 I-4.2955 J-3.1019
G1 Y79.1799
G3 X11.2984 Y84.0 I2.2 J4.8201
G3 X10.8201 Y86.2 I-5.2984 J0.0
G1 X43.1799
G3 X45.3508 Y79.4115 I4.8201 J-2.2
G3 X50.2 Y79.1799 I2.6492 J4.5885
G1 Y10.8201
G3 X45.3508 Y10.5885 I-2.2 J-4.8201
G3 X43.1799 Y3.8 I2.6492 J-4.5885
G1 X10.8201
G3 X11.2984 Y6.0 I-4.8201 J2.2
G3 X10.2955 Y9.1019 I-5.2984 J0.0
G1 F250.0 X9.6482 Y8.6345
G3 F800.0 X3.75 Y9.8971 I-3.6482 J-2.6345
G3 X3.0 Y9.3541 I2.25 J-3.8971
G1 Y80.6459
G3 X3.75 Y80.1029 I3.0 J3.3541
G3 X10.5 Y84.0 I2.25 J3.8971
G3 X9.3541 Y87.0 I-4.5 J0.0
G1 X44.6459
G3 X45.75 Y80.1029 I3.3541 J-3.0
G3 X51.0 Y80.6459 I2.25 J3.8971
G1 Y9.3541
G3 X45.75 Y9.8971 I-3.0 J-3.3541
G3 X44.6459 Y3.0 I2.25 J-3.8971
G1 X9.3541
G3 X10.5 Y6.0 I-3.3541 J3.0
G3 X9.6482 Y8.6345 I-4.5 J0.0
( USB )
S7500
G0 Z3.0
G0 X15.2 Y0.7
G0 Z1.0
G1 F250.0 Z-1.5
G1 F800.0 Y1.3
G1 X19.3
G1 Y0.7
G1 X15.2
G1 F250.0 X14.8
G1 F800.0 Y1.7
G1 X19.7
G1 Y0.3
G1 X14.8
G1 Y0.7
G1 F250.0 X14.0
G1 F800.0 Y2.5
G1 X20.5
G1 Y-0.5
G1 X14.0
G1 Y0.7
G1 F250.0 X15.2
G1 Z-3.0
G1 F800.0 Y1.3
G1 X19.3
G1 Y0.7
G1 X15.2
G1 F250.0 X14.8
G1 F800.0 Y1.7
G1 X19.7
G1 Y0.3
G1 X14.8
G1 Y0.7
G1 F250.0 X14.0
G1 F800.0 Y2.5
G1 X20.5
G1 Y-0.5
G1 X14.0
G1 Y0.7
G1 F250.0 X15.2
G1 Z-4.5
G1 F800.0 Y1.3
G1 X19.3
G1 Y0.7
G1 X15.2
G1 F250.0 X14.8
G1 F800.0 Y1.7
G1 X19.7
G1 Y0.3
G1 X14.8
G1 Y0.7
G1 F250.0 X14.0
G1 F800.0 Y2.5
G1 X20.5
G1 Y-0.5
G1 X14.0
G1 Y0.7
G1 F250.0 X15.2
G1 Z-5.0
G1 F800.0 Y1.3
G1 X19.3
G1 Y0.7
G1 X15.2
G1 F250.0 X14.8
G1 F800.0 Y1.7
G1 X19.7
G1 Y0.3
G1 X14.8
G1 Y0.7
G1 F250.0 X14.0
G1 F800.0 Y2.5
G1 X20.5
G1 Y-0.5
G1 X14.0
G1 Y0.7
( SD )
S7500
G0 Z3.0
G0 X0.7 Y35.2
G0 Z1.0
G1 F250.0 Z-1.5
G1 F800.0 Y43.8
G1 X1.3
G1 Y35.2
G1 X0.7
G1 F250.0 X0.3
G1 F800.0 Y44.2
G1 X1.7
G1 Y34.8
G1 X0.3
G1 Y35.2
G1 F250.0 X-0.5
G1 F800.0 Y45.0
G1 X2.5
G1 Y34.0
G1 X-0.5
G1 Y35.2
G1 F250.0 X0.7
G1 Z-3.0
G1 F800.0 Y43.8
G1 X1.3
G1 Y35.2
G1 X0.7
G1 F250.0 X0.3
G1 F800.0 Y44.2
G1 X1.7
G1 Y34.8
G1 X0.3
G1 Y35.2
G1 F250.0 X-0.5
G1 F800.0 Y45.0
G1 X2.5
G1 Y34.0
G1 X-0.5
G1 Y35.2
G1 F250.0 X0.7
G1 Z-3.5
G1 F800.0 Y43.8
G1 X1.3
G1 Y35.2
G1 X0.7
G1 F250.0 X0.3
G1 F800.0 Y44.2
G1 X1.7
G1 Y34.8
G1 X0.3
G1 Y35.2
G1 F250.0 X-0.5
G1 F800.0 Y45.0
G1 X2.5
G1 Y34.0
G1 X-0.5
G1 Y35.2
( Passages )
S7500
G0 Z3.0
G0 X47.6 Y77.5
G0 Z1.0
G1 F250.0 Z-1.5
G2 F800.0 X47.45 Y77.4134 I-0.1 J0.0
G2 Y77.5866 I0.05 J0.0866
G2 X47.6 Y77.5 I0.05 J-0.0866
G1 F250.0 Z-3.0
G2 F800.0 X47.45 Y77.4134 I-0.1 J0.0
G2 Y77.5866 I0.05 J0.0866
G2 X47.6 Y77.5 I0.05 J-0.0866
G1 F250.0 Z-4.5
G2 F800.0 X47.45 Y77.4134 I-0.1 J0.0
G2 Y77.5866 I0.05 J0.0866
G2 X47.6 Y77.5 I0.05 J-0.0866
G1 F250.0 Z-6.0
G2 F800.0 X47.45 Y77.4134 I-0.1 J0.0
G2 Y77.5866 I0.05 J0.0866
G2 X47.6 Y77.5 I0.05 J-0.0866
G1 F250.0 Z-7.5
G2 F800.0 X47.45 Y77.4134 I-0.1 J0.0
G2 Y77.5866 I0.05 J0.0866
G2 X47.6 Y77.5 I0.05 J-0.0866
G1 F250.0 Z-9.0
G2 F800.0 X47.45 Y77.4134 I-0.1 J0.0
G2 Y77.5866 I0.05 J0.0866
G2 X47.6 Y77.5 I0.05 J-0.0866
G1 F250.0 Z-10.0
G2 F800.0 X47.45 Y77.4134 I-0.1 J0.0
G2 Y77.5866 I0.05 J0.0866
G2 X47.6 Y77.5 I0.05 J-0.0866
G0 Z3.0
G0 X35.0637 Y40.1896
G0 Z1.0
G1 F250.0 Z-1.5
G2 F800.0 X35.2 Y40.0 I-0.0637 J-0.1896
G2 X34.9 Y39.8268 I-0.2 J0.0
G2 Y40.1732 I0.1 J0.1732
G2 X35.0637 Y40.1896 I0.1 J-0.1732
G1 F250.0 X35.3185 Y40.9479
G2 F800.0 X36.0 Y40.0 I-0.3185 J-0.9479
G2 X34.5 Y39.134 I-1.0 J0.0
G2 Y40.866 I0.5 J0.866
G2 X35.3185 Y40.9479 I0.5 J-0.866
G1 F250.0 X35.0637 Y40.1896
G1 Z-3.0
G2 F800.0 X35.2 Y40.0 I-0.0637 J-0.1896
G2 X34.9 Y39.8268 I-0.2 J0.0
G2 Y40.1732 I0.1 J0.1732
G2 X35.0637 Y40.1896 I0.1 J-0.1732
G1 F250.0 X35.3185 Y40.9479
G2 F800.0 X36.0 Y40.0 I-0.3185 J-0.9479
G2 X34.5 Y39.134 I-1.0 J0.0
G2 Y40.866 I0.5 J0.866
G2 X35.3185 Y40.9479 I0.5 J-0.866
G1 F250.0 X35.0637 Y40.1896
G1 Z-4.5
G2 F800.0 X35.2 Y40.0 I-0.0637 J-0.1896
G2 X34.9 Y39.8268 I-0.2 J0.0
G2 Y40.1732 I0.1 J0.1732
G2 X35.0637 Y40.1896 I0.1 J-0.1732
G1 F250.0 X35.3185 Y40.9479
G2 F800.0 X36.0 Y40.0 I-0.3185 J-0.9479
G2 X34.5 Y39.134 I-1.0 J0.0
G2 Y40.866 I0.5 J0.866
G2 X35.3185 Y40.9479 I0.5 J-0.866
G1 F250.0 X35.0637 Y40.1896
G1 Z-6.0
G2 F800.0 X35.2 Y40.0 I-0.0637 J-0.1896
G2 X34.9 Y39.8268 I-0.2 J0.0
G2 Y40.1732 I0.1 J0.1732
G2 X35.0637 Y40.1896 I0.1 J-0.1732
G1 F250.0 X35.3185 Y40.9479
G2 F800.0 X36.0 Y40.0 I-0.3185 J-0.9479
G2 X34.5 Y39.134 I-1.0 J0.0
G2 Y40.866 I0.5 J0.866
G2 X35.3185 Y40.9479 I0.5 J-0.866
G1 F250.0 X35.0637 Y40.1896
G1 Z-7.5
G2 F800.0 X35.2 Y40.0 I-0.0637 J-0.1896
G2 X34.9 Y39.8268 I-0.2 J0.0
G2 Y40.1732 I0.1 J0.1732
G2 X35.0637 Y40.1896 I0.1 J-0.1732
G1 F250.0 X35.3185 Y40.9479
G2 F800.0 X36.0 Y40.0 I-0.3185 J-0.9479
G2 X34.5 Y39.134 I-1.0 J0.0
G2 Y40.866 I0.5 J0.866
G2 X35.3185 Y40.9479 I0.5 J-0.866
G1 F250.0 X35.0637 Y40.1896
G1 Z-9.0
G2 F800.0 X35.2 Y40.0 I-0.0637 J-0.1896
G2 X34.9 Y39.8268 I-0.2 J0.0
G2 Y40.1732 I0.1 J0.1732
G2 X35.0637 Y40.1896 I0.1 J-0.1732
G1 F250.0 X35.3185 Y40.9479
G2 F800.0 X36.0 Y40.0 I-0.3185 J-0.9479
G2 X34.5 Y39.134 I-1.0 J0.0
G2 Y40.866 I0.5 J0.866
G2 X35.3185 Y40.9479 I0.5 J-0.866
G1 F250.0 X35.0637 Y40.1896
G1 Z-10.0
G2 F800.0 X35.2 Y40.0 I-0.0637 J-0.1896
G2 X34.9 Y39.8268 I-0.2 J0.0
G2 Y40.1732 I0.1 J0.1732
G2 X35.0637 Y40.1896 I0.1 J-0.1732
G1 F250.0 X35.3185 Y40.9479
G2 F800.0 X36.0 Y40.0 I-0.3185 J-0.9479
G2 X34.5 Y39.134 I-1.0 J0.0
G2 Y40.866 I0.5 J0.866
G2 X35.3185 Y40.9479 I0.5 J-0.866
( Fixations )
S7500
G0 Z3.0
G0 X27.2 Y30.0
G0 Z1.0
G1 F250.0 Z-1.5
G2 F800.0 X26.9 Y29.8268 I-0.2 J0.0
G2 Y30.1732 I0.1 J0.1732
G2 X27.2 Y30.0 I0.1 J-0.1732
G1 F250.0 X28.0
G2 F800.0 X26.5 Y29.134 I-1.0 J0.0
G2 Y30.866 I0.5 J0.866
G2 X28.0 Y30.0 I0.5 J-0.866
G1 F250.0 X27.2
G1 Z-3.0
G2 F800.0 X26.9 Y29.8268 I-0.2 J0.0
G2 Y30.1732 I0.1 J0.1732
G2 X27.2 Y30.0 I0.1 J-0.1732
G1 F250.0 X28.0
G2 F800.0 X26.5 Y29.134 I-1.0 J0.0
G2 Y30.866 I0.5 J0.866
G2 X28.0 Y30.0 I0.5 J-0.866
G1 F250.0 X27.2
G1 Z-4.5
G2 F800.0 X26.9 Y29.8268 I-0.2 J0.0
G2 Y30.1732 I0.1 J0.1732
G2 X27.2 Y30.0 I0.1 J-0.1732
G1 F250.0 X28.0
G2 F800.0 X26.5 Y29.134 I-1.0 J0.0
G2 Y30.866 I0.5 J0.866
G2 X28.0 Y30.0 I0.5 J-0.866
G1 F250.0 X27.2
G1 Z-6.0
G2 F800.0 X26.9 Y29.8268 I-0.2 J0.0
G2 Y30.1732 I0.1 J0.1732
G2 X27.2 Y30.0 I0.1 J-0.1732
G1 F250.0 X28.0
G2 F800.0 X26.5 Y29.134 I-1.0 J0.0
G2 Y30.866 I0.5 J0.866
G2 X28.0 Y30.0 I0.5 J-0.866
G1 F250.0 X27.2
G1 Z-7.5
G2 F800.0 X26.9 Y29.8268 I-0.2 J0.0
G2 Y30.1732 I0.1 J0.1732
G2 X27.2 Y30.0 I0.1 J-0.1732
G1 F250.0 X28.0
G2 F800.0 X26.5 Y29.134 I-1.0 J0.0
G2 Y30.866 I0.5 J0.866
G2 X28.0 Y30.0 I0.5 J-0.866
G1 F250.0 X27.2
G1 Z-9.0
G2 F800.0 X26.9 Y29.8268 I-0.2 J0.0
G2 Y30.1732 I0.1 J0.1732
G2 X27.2 Y30.0 I0.1 J-0.1732
G1 F250.0 X28.0
G2 F800.0 X26.5 Y29.134 I-1.0 J0.0
G2 Y30.866 I0.5 J0.866
G2 X28.0 Y30.0 I0.5 J-0.866
G1 F250.0 X27.2
G1 Z-10.0
G2 F800.0 X26.9 Y29.8268 I-0.2 J0.0
G2 Y30.1732 I0.1 J0.1732
G2 X27.2 Y30.0 I0.1 J-0.1732
G1 F250.0 X28.0
G2 F800.0 X26.5 Y29.134 I-1.0 J0.0
G2 Y30.866 I0.5 J0.866
G2 X28.0 Y30.0 I0.5 J-0.866
G0 Z3.0
G0 X27.01 Y49.8002
G0 Z1.0
G1 F250.0 Z-1.5
G2 F800.0 X26.9 Y49.8268 I-0.01 J0.1998
G2 Y50.1732 I0.1 J0.1732
G2 X27.2 Y50.0 I0.1 J-0.1732
G2 X27.01 Y49.8002 I-0.2 J0.0
G1 F250.0 X27.0499 Y49.0012
G2 F800.0 X26.5 Y49.134 I-0.0499 J0.9988
G2 Y50.866 I0.5 J0.866
G2 X28.0 Y50.0 I0.5 J-0.866
G2 X27.0499 Y49.0012 I-1.0 J0.0
G1 F250.0 X27.01 Y49.8002
G1 Z-3.0
G2 F800.0 X26.9 Y49.8268 I-0.01 J0.1998
G2 Y50.1732 I0.1 J0.1732
G2 X27.2 Y50.0 I0.1 J-0.1732
G2 X27.01 Y49.8002 I-0.2 J0.0
G1 F250.0 X27.0499 Y49.0012
G2 F800.0 X26.5 Y49.134 I-0.0499 J0.9988
G2 Y50.866 I0.5 J0.866
G2 X28.0 Y50.0 I0.5 J-0.866
G2 X27.0499 Y49.0012 I-1.0 J0.0
G1 F250.0 X27.01 Y49.8002
G1 Z-4.5
G2 F800.0 X26.9 Y49.8268 I-0.01 J0.1998
G2 Y50.1732 I0.1 J0.1732
G2 X27.2 Y50.0 I0.1 J-0.1732
G2 X27.01 Y49.8002 I-0.2 J0.0
G1 F250.0 X27.0499 Y49.0012
G2 F800.0 X26.5 Y49.134 I-0.0499 J0.9988
G2 Y50.866 I0.5 J0.866
G2 X28.0 Y50.0 I0.5 J-0.866
G2 X27.0499 Y49.0012 I-1.0 J0.0
G1 F250.0 X27.01 Y49.8002
G1 Z-6.0
G2 F800.0 X26.9 Y49.8268 I-0.01 J0.1998
G2 Y50.1732 I0.1 J0.1732
G2 X27.2 Y50.0 I0.1 J-0.1732
G2 X27.01 Y49.8002 I-0.2 J0.0
G1 F250.0 X27.0499 Y49.0012
G2 F800.0 X26.5 Y49.134 I-0.0499 J0.9988
G2 Y50.866 I0.5 J0.866
G2 X28.0 Y50.0 I0.5 J-0.866
G2 X27.0499 Y49.0012 I-1.0 J0.0
G1 F250.0 X27.01 Y49.8002
G1 Z-7.5
G2 F800.0 X26.9 Y49.8268 I-0.01 J0.1998
G2 Y50.1732 I0.1 J0.1732
G2 X27.2 Y50.0 I0.1 J-0.1732
G2 X27.01 Y49.8002 I-0.2 J0.0
G1 F250.0 X27.0499 Y49.0012
G2 F800.0 X26.5 Y49.134 I-0.0499 J0.9988
G2 Y50.866 I0.5 J0.866
G2 X28.0 Y50.0 I0.5 J-0.866
G2 X27.0499 Y49.0012 I-1.0 J0.0
G1 F250.0 X27.01 Y49.8002
G1 Z-9.0
G2 F800.0 X26.9 Y49.8268 I-0.01 J0.1998
G2 Y50.1732 I0.1 J0.1732
G2 X27.2 Y50.0 I0.1 J-0.1732
G2 X27.01 Y49.8002 I-0.2 J0.0
G1 F250.0 X27.0499 Y49.0012
G2 F800.0 X26.5 Y49.134 I-0.0499 J0.9988
G2 Y50.866 I0.5 J0.866
G2 X28.0 Y50.0 I0.5 J-0.866
G2 X27.0499 Y49.0012 I-1.0 J0.0
G1 F250.0 X27.01 Y49.8002
G1 Z-10.0
G2 F800.0 X26.9 Y49.8268 I-0.01 J0.1998
G2 Y50.1732 I0.1 J0.1732
G2 X27.2 Y50.0 I0.1 J-0.1732
G2 X27.01 Y49.8002 I-0.2 J0.0
G1 F250.0 X27.0499 Y49.0012
G2 F800.0 X26.5 Y49.134 I-0.0499 J0.9988
G2 Y50.866 I0.5 J0.866
G2 X28.0 Y50.0 I0.5 J-0.866
G2 X27.0499 Y49.0012 I-1.0 J0.0
( FixationHead )
S7500
G0 Z3.0
G0 X27.1 Y30.0
G0 Z1.0
G1 F250.0 Z-1.5
G2 F800.0 X26.95 Y29.9134 I-0.1 J0.0
G2 Y30.0866 I0.05 J0.0866
G2 X27.1 Y30.0 I0.05 J-0.0866
G1 F250.0 X27.9
G2 F800.0 X26.55 Y29.2206 I-0.9 J0.0
G2 Y30.7794 I0.45 J0.7794
G2 X27.9 Y30.0 I0.45 J-0.7794
G1 F250.0 X28.7
G2 F800.0 X26.15 Y28.5278 I-1.7 J0.0
G2 Y31.4722 I0.85 J1.4722
G2 X28.7 Y30.0 I0.85 J-1.4722
G1 F250.0 X29.5
G2 F800.0 X25.75 Y27.8349 I-2.5 J0.0
G2 Y32.1651 I1.25 J2.1651
G2 X29.5 Y30.0 I1.25 J-2.1651
G0 Z3.0
G0 X27.1
G0 Z-0.5
G1 F250.0 Z-3.0
G2 F800.0 X26.95 Y29.9134 I-0.1 J0.0
G2 Y30.0866 I0.05 J0.0866
G2 X27.1 Y30.0 I0.05 J-0.0866
G1 F250.0 X27.9
G2 F800.0 X26.55 Y29.2206 I-0.9 J0.0
G2 Y30.7794 I0.45 J0.7794
G2 X27.9 Y30.0 I0.45 J-0.7794
G1 F250.0 X28.7
G2 F800.0 X26.15 Y28.5278 I-1.7 J0.0
G2 Y31.4722 I0.85 J1.4722
G2 X28.7 Y30.0 I0.85 J-1.4722
G1 F250.0 X29.5
G2 F800.0 X25.75 Y27.8349 I-2.5 J0.0
G2 Y32.1651 I1.25 J2.1651
G2 X29.5 Y30.0 I1.25 J-2.1651
G0 Z3.0
G0 X27.1
G0 Z-2.0
G1 F250.0 Z-4.5
G2 F800.0 X26.95 Y29.9134 I-0.1 J0.0
G2 Y30.0866 I0.05 J0.0866
G2 X27.1 Y30.0 I0.05 J-0.0866
G1 F250.0 X27.9
G2 F800.0 X26.55 Y29.2206 I-0.9 J0.0
G2 Y30.7794 I0.45 J0.7794
G2 X27.9 Y30.0 I0.45 J-0.7794
G1 F250.0 X28.7
G2 F800.0 X26.15 Y28.5278 I-1.7 J0.0
G2 Y31.4722 I0.85 J1.4722
G2 X28.7 Y30.0 I0.85 J-1.4722
G1 F250.0 X29.5
G2 F800.0 X25.75 Y27.8349 I-2.5 J0.0
G2 Y32.1651 I1.25 J2.1651
G2 X29.5 Y30.0 I1.25 J-2.1651
G0 Z3.0
G0 X27.1
G0 Z-3.5
G1 F250.0 Z-5.5
G2 F800.0 X26.95 Y29.9134 I-0.1 J0.0
G2 Y30.0866 I0.05 J0.0866
G2 X27.1 Y30.0 I0.05 J-0.0866
G1 F250.0 X27.9
G2 F800.0 X26.55 Y29.2206 I-0.9 J0.0
G2 Y30.7794 I0.45 J0.7794
G2 X27.9 Y30.0 I0.45 J-0.7794
G1 F250.0 X28.7
G2 F800.0 X26.15 Y28.5278 I-1.7 J0.0
G2 Y31.4722 I0.85 J1.4722
G2 X28.7 Y30.0 I0.85 J-1.4722
G1 F250.0 X29.5
G2 F800.0 X25.75 Y27.8349 I-2.5 J0.0
G2 Y32.1651 I1.25 J2.1651
G2 X29.5 Y30.0 I1.25 J-2.1651
G0 Z3.0
G0 X27.0124 Y49.9008
G0 Z1.0
G1 F250.0 Z-1.5
G2 F800.0 X26.95 Y49.9134 I-0.0124 J0.0992
G2 Y50.0866 I0.05 J0.0866
G2 X27.1 Y50.0 I0.05 J-0.0866
G2 X27.0124 Y49.9008 I-0.1 J0.0
G1 F250.0 X27.1116 Y49.1069
G2 F800.0 X26.55 Y49.2206 I-0.1116 J0.8931
G2 Y50.7794 I0.45 J0.7794
G2 X27.9 Y50.0 I0.45 J-0.7794
G2 X27.1116 Y49.1069 I-0.9 J0.0
G1 F250.0 X27.2109 Y48.3131
G2 F800.0 X26.15 Y48.5278 I-0.2109 J1.6869
G2 Y51.4722 I0.85 J1.4722
G2 X28.7 Y50.0 I0.85 J-1.4722
G2 X27.2109 Y48.3131 I-1.7 J0.0
G1 F250.0 X27.3101 Y47.5193
G2 F800.0 X25.75 Y47.8349 I-0.3101 J2.4807
G2 Y52.1651 I1.25 J2.1651
G2 X29.5 Y50.0 I1.25 J-2.1651
G2 X27.3101 Y47.5193 I-2.5 J0.0
G0 Z3.0
G0 X27.0124 Y49.9008
G0 Z-0.5
G1 F250.0 Z-3.0
G2 F800.0 X26.95 Y49.9134 I-0.0124 J0.0992
G2 Y50.0866 I0.05 J0.0866
G2 X27.1 Y50.0 I0.05 J-0.0866
G2 X27.0124 Y49.9008 I-0.1 J0.0
G1 F250.0 X27.1116 Y49.1069
G2 F800.0 X26.55 Y49.2206 I-0.1116 J0.8931
G2 Y50.7794 I0.45 J0.7794
G2 X27.9 Y50.0 I0.45 J-0.7794
G2 X27.1116 Y49.1069 I-0.9 J0.0
G1 F250.0 X27.2109 Y48.3131
G2 F800.0 X26.15 Y48.5278 I-0.2109 J1.6869
G2 Y51.4722 I0.85 J1.4722
G2 X28.7 Y50.0 I0.85 J-1.4722
G2 X27.2109 Y48.3131 I-1.7 J0.0
G1 F250.0 X27.3101 Y47.5193
G2 F800.0 X25.75 Y47.8349 I-0.3101 J2.4807
G2 Y52.1651 I1.25 J2.1651
G2 X29.5 Y50.0 I1.25 J-2.1651
G2 X27.3101 Y47.5193 I-2.5 J0.0
G0 Z3.0
G0 X27.0124 Y49.9008
G0 Z-2.0
G1 F250.0 Z-4.5
G2 F800.0 X26.95 Y49.9134 I-0.0124 J0.0992
G2 Y50.0866 I0.05 J0.0866
G2 X27.1 Y50.0 I0.05 J-0.0866
G2 X27.0124 Y49.9008 I-0.1 J0.0
G1 F250.0 X27.1116 Y49.1069
G2 F800.0 X26.55 Y49.2206 I-0.1116 J0.8931
G2 Y50.7794 I0.45 J0.7794
G2 X27.9 Y50.0 I0.45 J-0.7794
G2 X27.1116 Y49.1069 I-0.9 J0.0
G1 F250.0 X27.2109 Y48.3131
G2 F800.0 X26.15 Y48.5278 I-0.2109 J1.6869
G2 Y51.4722 I0.85 J1.4722
G2 X28.7 Y50.0 I0.85 J-1.4722
G2 X27.2109 Y48.3131 I-1.7 J0.0
G1 F250.0 X27.3101 Y47.5193
G2 F800.0 X25.75 Y47.8349 I-0.3101 J2.4807
G2 Y52.1651 I1.25 J2.1651
G2 X29.5 Y50.0 I1.25 J-2.1651
G2 X27.3101 Y47.5193 I-2.5 J0.0
G0 Z3.0
G0 X27.0124 Y49.9008
G0 Z-3.5
G1 F250.0 Z-5.5
G2 F800.0 X26.95 Y49.9134 I-0.0124 J0.0992
G2 Y50.0866 I0.05 J0.0866
G2 X27.1 Y50.0 I0.05 J-0.0866
G2 X27.0124 Y49.9008 I-0.1 J0.0
G1 F250.0 X27.1116 Y49.1069
G2 F800.0 X26.55 Y49.2206 I-0.1116 J0.8931
G2 Y50.7794 I0.45 J0.7794
G2 X27.9 Y50.0 I0.45 J-0.7794
G2 X27.1116 Y49.1069 I-0.9 J0.0
G1 F250.0 X27.2109 Y48.3131
G2 F800.0 X26.15 Y48.5278 I-0.2109 J1.6869
G2 Y51.4722 I0.85 J1.4722
G2 X28.7 Y50.0 I0.85 J-1.4722
G2 X27.2109 Y48.3131 I-1.7 J0.0
G1 F250.0 X27.3101 Y47.5193
G2 F800.0 X25.75 Y47.8349 I-0.3101 J2.4807
G2 Y52.1651 I1.25 J2.1651
G2 X29.5 Y50.0 I1.25 J-2.1651
G2 X27.3101 Y47.5193 I-2.5 J0.0
( Epargne )
S7500
G0 Z3.0
G0 X22.2 Y26.2
G0 Z1.0
G1 F250.0 Z-1.5
G1 F800.0 Y26.8
G1 X31.8
G1 Y26.2
G1 X22.2
G1 F250.0 Y25.8
G1 F800.0 X21.8
G1 Y27.2
G1 X32.2
G1 Y25.8
G1 X22.2
G1 F250.0 Y25.0
G1 F800.0 X21.0
G1 Y28.0
G1 X33.0
G1 Y25.0
G1 X22.2
G1 F250.0 Y26.2
G1 Z-2.0
G1 F800.0 Y26.8
G1 X31.8
G1 Y26.2
G1 X22.2
G1 F250.0 Y25.8
G1 F800.0 X21.8
G1 Y27.2
G1 X32.2
G1 Y25.8
G1 X22.2
G1 F250.0 Y25.0
G1 F800.0 X21.0
G1 Y28.0
G1 X33.0
G1 Y25.0
G1 X22.2
( Contour )
S7500
G0 Z3.0
G0 X0.0 Y-1.0
G0 Z1.0
G1 F250.0 Z-1.5
G1 F800.0 X54.0
G3 X55.0 Y0.0 I0.0 J1.0
G1 Y90.0
G3 X54.0 Y91.0 I-1.0 J0.0
G1 X0.0
G3 X-1.0 Y90.0 I0.0 J-1.0
G1 Y0.0
G3 X0.0 Y-1.0 I1.0 J0.0
G1 F250.0 Z-3.0
G1 F800.0 X54.0
G3 X55.0 Y0.0 I0.0 J1.0
G1 Y90.0
G3 X54.0 Y91.0 I-1.0 J0.0
G1 X0.0
G3 X-1.0 Y90.0 I0.0 J-1.0
G1 Y0.0
G3 X0.0 Y-1.0 I1.0 J0.0
G1 F250.0 Z-4.5
G1 F800.0 X54.0
G3 X55.0 Y0.0 I0.0 J1.0
G1 Y90.0
G3 X54.0 Y91.0 I-1.0 J0.0
G1 X0.0
G3 X-1.0 Y90.0 I0.0 J-1.0
G1 Y0.0
G3 X0.0 Y-1.0 I1.0 J0.0
G1 F250.0 Z-6.0
G1 F800.0 X54.0
G3 X55.0 Y0.0 I0.0 J1.0
G1 Y90.0
G3 X54.0 Y91.0 I-1.0 J0.0
G1 X0.0
G3 X-1.0 Y90.0 I0.0 J-1.0
G1 Y0.0
G3 X0.0 Y-1.0 I1.0 J0.0
G1 F250.0 Z-7.5
G1 F800.0 X54.0
G3 X55.0 Y0.0 I0.0 J1.0
G1 Y90.0
G3 X54.0 Y91.0 I-1.0 J0.0
G1 X0.0
G3 X-1.0 Y90.0 I0.0 J-1.0
G1 Y0.0
G3 X0.0 Y-1.0 I1.0 J0.0
G1 F250.0 Z-9.0
G1 F800.0 X25.0
G1 X26.0 Z-8.5
G1 X28.0
G1 X29.0 Z-9.0
G1 X54.0
G3 X55.0 Y0.0 I0.0 J1.0
G1 Y24.0
G1 Y25.0 Z-8.5
G1 Y27.0
G1 Y28.0 Z-9.0
G1 Y62.0
G1 Y63.0 Z-8.5
G1 Y65.0
G1 Y66.0 Z-9.0
G1 Y90.0
G3 X54.0 Y91.0 I-1.0 J0.0
G1 X29.0
G1 X28.0 Z-8.5
G1 X26.0
G1 X25.0 Z-9.0
G1 X0.0
G3 X-1.0 Y90.0 I0.0 J-1.0
G1 Y66.0
G1 Y65.0 Z-8.5
G1 Y63.0
G1 Y62.0 Z-9.0
G1 Y28.0
G1 Y27.0 Z-8.5
G1 Y25.0
G1 Y24.0 Z-9.0
G1 Y0.0
G3 X0.0 Y-1.0 I1.0 J0.0
G1 F250.0 Z-10.0
G1 F800.0 X25.0
G1 X26.0 Z-8.5
G1 X28.0
G1 X29.0 Z-10.0
G1 X54.0
G3 X55.0 Y0.0 I0.0 J1.0
G1 Y24.0
G1 Y25.0 Z-8.5
G1 Y27.0
G1 Y28.0 Z-10.0
G1 Y62.0
G1 Y63.0 Z-8.5
G1 Y65.0
G1 Y66.0 Z-10.0
G1 Y90.0
G3 X54.0 Y91.0 I-1.0 J0.0
G1 X29.0
G1 X28.0 Z-8.5
G1 X26.0
G1 X25.0 Z-10.0
G1 X0.0
G3 X-1.0 Y90.0 I0.0 J-1.0
G1 Y66.0
G1 Y65.0 Z-8.5
G1 Y63.0
G1 Y62.0 Z-10.0
G1 Y28.0
G1 Y27.0 Z-8.5
G1 Y25.0
G1 Y24.0 Z-10.0
G1 Y0.0
G3 X0.0 Y-1.0 I1.0 J0.0
G0 Z3.0
M5
M159 ; Stop cooling pump
M30
